;GENYA 600
;Date and Time: 26/07/2025 - 22:09
;File Name: sample_05.dxf
;Approximate Machining Time : 0.0 min.
MSG("gcode")
BRETON_INIT(0)
G518 BRETON_WAREA("MILL")
BRETON_PRE_TOOL
T1 ;Z5 408.0 rough
BRETON_CHGTOOL
D1
BRETON_POST_TOOL(5,0)
G0 X22.3790 Y17.1982 Z50.0000
G1 X22.3790 Y17.1982 Z0.0000 F500.0
G1 X22.3790 Y17.1982 Z0.0000 F2000.0
G1 X26.3790 Y17.1982 Z0.0000 F2000.0
G1 X30.3790 Y17.1982 Z0.0000 F2000.0
G1 X34.3790 Y17.1982 Z0.0000 F2000.0
G1 X38.3790 Y17.1982 Z0.0000 F2000.0
G1 X42.3790 Y17.1982 Z0.0000 F2000.0
G1 X46.3790 Y17.1982 Z0.0000 F2000.0
G1 X50.3790 Y17.1872 Z0.0000 F2000.0
G1 X54.3790 Y16.9909 Z0.0000 F2000.0
G1 X58.3790 Y16.5471 Z0.0000 F2000.0
G1 X62.3790 Y15.8508 Z0.0000 F2000.0
G1 X66.3790 Y14.8934 Z0.0000 F2000.0
G1 X70.3790 Y13.6630 Z0.0000 F2000.0
G1 X74.3790 Y12.1428 Z0.0000 F2000.0
G1 X78.3790 Y10.3101 Z0.0000 F2000.0
G1 X82.3790 Y9.0991 Z0.0000 F2000.0
G1 X86.3790 Y9.0991 Z0.0000 F2000.0
G1 X90.3790 Y9.0991 Z0.0000 F2000.0
G1 X94.3790 Y9.0991 Z0.0000 F2000.0
G1 X98.3790 Y9.0991 Z0.0000 F2000.0
G1 X102.3790 Y9.0991 Z0.0000 F2000.0
G1 X106.3790 Y9.0991 Z0.0000 F2000.0
G1 X110.3790 Y9.0991 Z0.0000 F2000.0
G1 X114.3790 Y9.0991 Z0.0000 F2000.0
G1 X118.3790 Y9.5363 Z0.0000 F2000.0
G1 X122.3790 Y11.4935 Z0.0000 F2000.0
G1 X126.3790 Y13.1279 Z0.0000 F2000.0
G1 X130.3790 Y14.4648 Z0.0000 F2000.0
G1 X134.3790 Y15.5229 Z0.0000 F2000.0
G1 X138.3790 Y16.3160 Z0.0000 F2000.0
G1 X142.3790 Y16.8537 Z0.0000 F2000.0
G1 X146.3790 Y17.1424 Z0.0000 F2000.0
G1 X150.3790 Y17.1982 Z0.0000 F2000.0
G1 X154.3790 Y17.1982 Z0.0000 F2000.0
G1 X158.3790 Y17.1982 Z0.0000 F2000.0
G1 X162.3790 Y17.1982 Z0.0000 F2000.0
G1 X166.3790 Y17.1982 Z0.0000 F2000.0
G1 X170.3790 Y17.1982 Z0.0000 F2000.0
G1 X174.3790 Y17.1982 Z0.0000 F2000.0
M05 M09 BRETON_TCP_OFF BRETON_WAREA("HOME") M30
