; Breton G-code
BRETON_INIT(0)
G518
BRETON_WAREA("MILL")
BRETON_PRE_TOOL
BRETON_CHGTOOL
BRETON_POST_TOOL(5,0)
BRETON_ORIENTATION(0.0000,0.0000,,,,0,0)
BRETON_SETWPLANE(0,0,0,0,0,0)
MS1
M4S1600
M07
; ---- Rough #1 ----
G0  Z50.00
G0  X22.38  Y1000.00  C-90 A0
G1  Z17.20  F500
G1  Y100.00  F2000
; ---- Rough #2 ----
G0  Z50.00
G0  X26.38  Y1000.00  C-90 A0
G1  Z17.20  F500
G1  Y100.00  F2000
; ---- Rough #3 ----
G0  Z50.00
G0  X30.38  Y1000.00  C-90 A0
G1  Z17.20  F500
G1  Y100.00  F2000
; ---- Rough #4 ----
G0  Z50.00
G0  X34.38  Y1000.00  C-90 A0
G1  Z17.20  F500
G1  Y100.00  F2000
; ---- Rough #5 ----
G0  Z50.00
G0  X38.38  Y1000.00  C-90 A0
G1  Z17.20  F500
G1  Y100.00  F2000
; ---- Rough #6 ----
G0  Z50.00
G0  X42.38  Y1000.00  C-90 A0
G1  Z17.20  F500
G1  Y100.00  F2000
; ---- Rough #7 ----
G0  Z50.00
G0  X46.38  Y1000.00  C-90 A0
G1  Z17.20  F500
G1  Y100.00  F2000
; ---- Rough #8 ----
G0  Z50.00
G0  X50.38  Y1000.00  C-90 A0
G1  Z17.19  F500
G1  Y100.00  F2000
; ---- Rough #9 ----
G0  Z50.00
G0  X54.38  Y1000.00  C-90 A0
G1  Z16.99  F500
G1  Y100.00  F2000
; ---- Rough #10 ----
G0  Z50.00
G0  X58.38  Y1000.00  C-90 A0
G1  Z16.55  F500
G1  Y100.00  F2000
; ---- Rough #11 ----
G0  Z50.00
G0  X62.38  Y1000.00  C-90 A0
G1  Z15.85  F500
G1  Y100.00  F2000
; ---- Rough #12 ----
G0  Z50.00
G0  X66.38  Y1000.00  C-90 A0
G1  Z14.89  F500
G1  Y100.00  F2000
; ---- Rough #13 ----
G0  Z50.00
G0  X70.38  Y1000.00  C-90 A0
G1  Z13.66  F500
G1  Y100.00  F2000
; ---- Rough #14 ----
G0  Z50.00
G0  X74.38  Y1000.00  C-90 A0
G1  Z12.14  F500
G1  Y100.00  F2000
; ---- Rough #15 ----
G0  Z50.00
G0  X78.38  Y1000.00  C-90 A0
G1  Z10.31  F500
G1  Y100.00  F2000
; ---- Rough #16 ----
G0  Z50.00
G0  X82.38  Y1000.00  C-90 A0
G1  Z9.10  F500
G1  Y100.00  F2000
; ---- Rough #17 ----
G0  Z50.00
G0  X86.38  Y1000.00  C-90 A0
G1  Z9.10  F500
G1  Y100.00  F2000
; ---- Rough #18 ----
G0  Z50.00
G0  X90.38  Y1000.00  C-90 A0
G1  Z9.10  F500
G1  Y100.00  F2000
; ---- Rough #19 ----
G0  Z50.00
G0  X94.38  Y1000.00  C-90 A0
G1  Z9.10  F500
G1  Y100.00  F2000
; ---- Rough #20 ----
G0  Z50.00
G0  X98.38  Y1000.00  C-90 A0
G1  Z9.10  F500
G1  Y100.00  F2000
; ---- Rough #21 ----
G0  Z50.00
G0  X102.38  Y1000.00  C-90 A0
G1  Z9.10  F500
G1  Y100.00  F2000
; ---- Rough #22 ----
G0  Z50.00
G0  X106.38  Y1000.00  C-90 A0
G1  Z9.10  F500
G1  Y100.00  F2000
; ---- Rough #23 ----
G0  Z50.00
G0  X110.38  Y1000.00  C-90 A0
G1  Z9.10  F500
G1  Y100.00  F2000
; ---- Rough #24 ----
G0  Z50.00
G0  X114.38  Y1000.00  C-90 A0
G1  Z9.10  F500
G1  Y100.00  F2000
; ---- Rough #25 ----
G0  Z50.00
G0  X118.38  Y1000.00  C-90 A0
G1  Z9.54  F500
G1  Y100.00  F2000
; ---- Rough #26 ----
G0  Z50.00
G0  X122.38  Y1000.00  C-90 A0
G1  Z11.49  F500
G1  Y100.00  F2000
; ---- Rough #27 ----
G0  Z50.00
G0  X126.38  Y1000.00  C-90 A0
G1  Z13.13  F500
G1  Y100.00  F2000
; ---- Rough #28 ----
G0  Z50.00
G0  X130.38  Y1000.00  C-90 A0
G1  Z14.46  F500
G1  Y100.00  F2000
; ---- Rough #29 ----
G0  Z50.00
G0  X134.38  Y1000.00  C-90 A0
G1  Z15.52  F500
G1  Y100.00  F2000
; ---- Rough #30 ----
G0  Z50.00
G0  X138.38  Y1000.00  C-90 A0
G1  Z16.32  F500
G1  Y100.00  F2000
; ---- Rough #31 ----
G0  Z50.00
G0  X142.38  Y1000.00  C-90 A0
G1  Z16.85  F500
G1  Y100.00  F2000
; ---- Rough #32 ----
G0  Z50.00
G0  X146.38  Y1000.00  C-90 A0
G1  Z17.14  F500
G1  Y100.00  F2000
; ---- Rough #33 ----
G0  Z50.00
G0  X150.38  Y1000.00  C-90 A0
G1  Z17.20  F500
G1  Y100.00  F2000
; ---- Rough #34 ----
G0  Z50.00
G0  X154.38  Y1000.00  C-90 A0
G1  Z17.20  F500
G1  Y100.00  F2000
; ---- Rough #35 ----
G0  Z50.00
G0  X158.38  Y1000.00  C-90 A0
G1  Z17.20  F500
G1  Y100.00  F2000
; ---- Rough #36 ----
G0  Z50.00
G0  X162.38  Y1000.00  C-90 A0
G1  Z17.20  F500
G1  Y100.00  F2000
; ---- Rough #37 ----
G0  Z50.00
G0  X166.38  Y1000.00  C-90 A0
G1  Z17.20  F500
G1  Y100.00  F2000
; ---- Rough #38 ----
G0  Z50.00
G0  X170.38  Y1000.00  C-90 A0
G1  Z17.20  F500
G1  Y100.00  F2000
; ---- Rough #39 ----
G0  Z50.00
G0  X174.38  Y1000.00  C-90 A0
G1  Z17.20  F500
G1  Y100.00  F2000
M18
; ---- stripe Y=1000.00 ----
G0  Z50.00
G0  X22.38  Y1000.00  C-90 A0
G1  Z16.20  F500
G1  Y1000.00  F2000
G1  X22.38  Z16.20  F800
G1  X48.88  Z16.20  F800
G1  X49.38  Z16.20  F800
G1  X49.88  Z16.19  F800
G1  X50.38  Z16.19  F800
G1  X50.88  Z16.18  F800
G1  X51.38  Z16.16  F800
G1  X51.88  Z16.14  F800
G1  X52.38  Z16.12  F800
G1  X52.88  Z16.09  F800
G1  X53.38  Z16.06  F800
G1  X53.88  Z16.03  F800
G1  X54.38  Z15.99  F800
G1  X54.88  Z15.95  F800
G1  X55.38  Z15.90  F800
G1  X55.88  Z15.85  F800
G1  X56.38  Z15.80  F800
G1  X56.88  Z15.74  F800
G1  X57.38  Z15.68  F800
G1  X57.88  Z15.62  F800
G1  X58.38  Z15.55  F800
G1  X58.88  Z15.47  F800
G1  X59.38  Z15.40  F800
G1  X59.88  Z15.32  F800
G1  X60.38  Z15.23  F800
G1  X60.88  Z15.14  F800
G1  X61.38  Z15.05  F800
G1  X61.88  Z14.95  F800
G1  X62.38  Z14.85  F800
G1  X62.88  Z14.75  F800
G1  X63.38  Z14.64  F800
G1  X63.88  Z14.52  F800
G1  X64.38  Z14.41  F800
G1  X64.88  Z14.28  F800
G1  X65.38  Z14.16  F800
G1  X65.88  Z14.03  F800
G1  X66.38  Z13.89  F800
G1  X66.88  Z13.75  F800
G1  X67.38  Z13.61  F800
G1  X67.88  Z13.46  F800
G1  X68.38  Z13.31  F800
G1  X68.88  Z13.16  F800
G1  X69.38  Z13.00  F800
G1  X69.88  Z12.83  F800
G1  X70.38  Z12.66  F800
G1  X70.88  Z12.49  F800
G1  X71.38  Z12.31  F800
G1  X71.88  Z12.13  F800
G1  X72.38  Z11.94  F800
G1  X72.88  Z11.75  F800
G1  X73.38  Z11.55  F800
G1  X73.88  Z11.35  F800
G1  X74.38  Z11.14  F800
G1  X74.88  Z10.93  F800
G1  X75.38  Z10.71  F800
G1  X75.88  Z10.49  F800
G1  X76.38  Z10.27  F800
G1  X76.88  Z10.04  F800
G1  X77.38  Z9.80  F800
G1  X77.88  Z9.56  F800
G1  X78.38  Z9.31  F800
G1  X78.88  Z9.06  F800
G1  X79.38  Z8.80  F800
G1  X79.88  Z8.54  F800
G1  X80.38  Z8.27  F800
G1  X80.88  Z8.10  F800
G1  X117.38  Z8.10  F800
G1  X117.88  Z8.27  F800
G1  X118.38  Z8.54  F800
G1  X118.88  Z8.80  F800
G1  X119.38  Z9.06  F800
G1  X119.88  Z9.31  F800
G1  X120.38  Z9.56  F800
G1  X120.88  Z9.80  F800
G1  X121.38  Z10.04  F800
G1  X121.88  Z10.27  F800
G1  X122.38  Z10.49  F800
G1  X122.88  Z10.71  F800
G1  X123.38  Z10.93  F800
G1  X123.88  Z11.14  F800
G1  X124.38  Z11.35  F800
G1  X124.88  Z11.55  F800
G1  X125.38  Z11.75  F800
G1  X125.88  Z11.94  F800
G1  X126.38  Z12.13  F800
G1  X126.88  Z12.31  F800
G1  X127.38  Z12.49  F800
G1  X127.88  Z12.66  F800
G1  X128.38  Z12.83  F800
G1  X128.88  Z13.00  F800
G1  X129.38  Z13.16  F800
G1  X129.88  Z13.31  F800
G1  X130.38  Z13.46  F800
G1  X130.88  Z13.61  F800
G1  X131.38  Z13.75  F800
G1  X131.88  Z13.89  F800
G1  X132.38  Z14.03  F800
G1  X132.88  Z14.16  F800
G1  X133.38  Z14.28  F800
G1  X133.88  Z14.41  F800
G1  X134.38  Z14.52  F800
G1  X134.88  Z14.64  F800
G1  X135.38  Z14.75  F800
G1  X135.88  Z14.85  F800
G1  X136.38  Z14.95  F800
G1  X136.88  Z15.05  F800
G1  X137.38  Z15.14  F800
G1  X137.88  Z15.23  F800
G1  X138.38  Z15.32  F800
G1  X138.88  Z15.40  F800
G1  X139.38  Z15.47  F800
G1  X139.88  Z15.55  F800
G1  X140.38  Z15.62  F800
G1  X140.88  Z15.68  F800
G1  X141.38  Z15.74  F800
G1  X141.88  Z15.80  F800
G1  X142.38  Z15.85  F800
G1  X142.88  Z15.90  F800
G1  X143.38  Z15.95  F800
G1  X143.88  Z15.99  F800
G1  X144.38  Z16.03  F800
G1  X144.88  Z16.06  F800
G1  X145.38  Z16.09  F800
G1  X145.88  Z16.12  F800
G1  X146.38  Z16.14  F800
G1  X146.88  Z16.16  F800
G1  X147.38  Z16.18  F800
G1  X147.88  Z16.19  F800
G1  X148.38  Z16.19  F800
G1  X148.88  Z16.20  F800
G1  X175.88  Z16.20  F800
G1  Y995.00  F500
; ---- stripe Y=995.00 ----
G0  X175.88  Y995.00
G1  Y995.00  F2000
G1  X175.88  Z16.20  F800
G1  X148.88  Z16.20  F800
G1  X148.38  Z16.19  F800
G1  X147.88  Z16.19  F800
G1  X147.38  Z16.18  F800
G1  X146.88  Z16.16  F800
G1  X146.38  Z16.14  F800
G1  X145.88  Z16.12  F800
G1  X145.38  Z16.09  F800
G1  X144.88  Z16.06  F800
G1  X144.38  Z16.03  F800
G1  X143.88  Z15.99  F800
G1  X143.38  Z15.95  F800
G1  X142.88  Z15.90  F800
G1  X142.38  Z15.85  F800
G1  X141.88  Z15.80  F800
G1  X141.38  Z15.74  F800
G1  X140.88  Z15.68  F800
G1  X140.38  Z15.62  F800
G1  X139.88  Z15.55  F800
G1  X139.38  Z15.47  F800
G1  X138.88  Z15.40  F800
G1  X138.38  Z15.32  F800
G1  X137.88  Z15.23  F800
G1  X137.38  Z15.14  F800
G1  X136.88  Z15.05  F800
G1  X136.38  Z14.95  F800
G1  X135.88  Z14.85  F800
G1  X135.38  Z14.75  F800
G1  X134.88  Z14.64  F800
G1  X134.38  Z14.52  F800
G1  X133.88  Z14.41  F800
G1  X133.38  Z14.28  F800
G1  X132.88  Z14.16  F800
G1  X132.38  Z14.03  F800
G1  X131.88  Z13.89  F800
G1  X131.38  Z13.75  F800
G1  X130.88  Z13.61  F800
G1  X130.38  Z13.46  F800
G1  X129.88  Z13.31  F800
G1  X129.38  Z13.16  F800
G1  X128.88  Z13.00  F800
G1  X128.38  Z12.83  F800
G1  X127.88  Z12.66  F800
G1  X127.38  Z12.49  F800
G1  X126.88  Z12.31  F800
G1  X126.38  Z12.13  F800
G1  X125.88  Z11.94  F800
G1  X125.38  Z11.75  F800
G1  X124.88  Z11.55  F800
G1  X124.38  Z11.35  F800
G1  X123.88  Z11.14  F800
G1  X123.38  Z10.93  F800
G1  X122.88  Z10.71  F800
G1  X122.38  Z10.49  F800
G1  X121.88  Z10.27  F800
G1  X121.38  Z10.04  F800
G1  X120.88  Z9.80  F800
G1  X120.38  Z9.56  F800
G1  X119.88  Z9.31  F800
G1  X119.38  Z9.06  F800
G1  X118.88  Z8.80  F800
G1  X118.38  Z8.54  F800
G1  X117.88  Z8.27  F800
G1  X117.38  Z8.10  F800
G1  X80.88  Z8.10  F800
G1  X80.38  Z8.27  F800
G1  X79.88  Z8.54  F800
G1  X79.38  Z8.80  F800
G1  X78.88  Z9.06  F800
G1  X78.38  Z9.31  F800
G1  X77.88  Z9.56  F800
G1  X77.38  Z9.80  F800
G1  X76.88  Z10.04  F800
G1  X76.38  Z10.27  F800
G1  X75.88  Z10.49  F800
G1  X75.38  Z10.71  F800
G1  X74.88  Z10.93  F800
G1  X74.38  Z11.14  F800
G1  X73.88  Z11.35  F800
G1  X73.38  Z11.55  F800
G1  X72.88  Z11.75  F800
G1  X72.38  Z11.94  F800
G1  X71.88  Z12.13  F800
G1  X71.38  Z12.31  F800
G1  X70.88  Z12.49  F800
G1  X70.38  Z12.66  F800
G1  X69.88  Z12.83  F800
G1  X69.38  Z13.00  F800
G1  X68.88  Z13.16  F800
G1  X68.38  Z13.31  F800
G1  X67.88  Z13.46  F800
G1  X67.38  Z13.61  F800
G1  X66.88  Z13.75  F800
G1  X66.38  Z13.89  F800
G1  X65.88  Z14.03  F800
G1  X65.38  Z14.16  F800
G1  X64.88  Z14.28  F800
G1  X64.38  Z14.41  F800
G1  X63.88  Z14.52  F800
G1  X63.38  Z14.64  F800
G1  X62.88  Z14.75  F800
G1  X62.38  Z14.85  F800
G1  X61.88  Z14.95  F800
G1  X61.38  Z15.05  F800
G1  X60.88  Z15.14  F800
G1  X60.38  Z15.23  F800
G1  X59.88  Z15.32  F800
G1  X59.38  Z15.40  F800
G1  X58.88  Z15.47  F800
G1  X58.38  Z15.55  F800
G1  X57.88  Z15.62  F800
G1  X57.38  Z15.68  F800
G1  X56.88  Z15.74  F800
G1  X56.38  Z15.80  F800
G1  X55.88  Z15.85  F800
G1  X55.38  Z15.90  F800
G1  X54.88  Z15.95  F800
G1  X54.38  Z15.99  F800
G1  X53.88  Z16.03  F800
G1  X53.38  Z16.06  F800
G1  X52.88  Z16.09  F800
G1  X52.38  Z16.12  F800
G1  X51.88  Z16.14  F800
G1  X51.38  Z16.16  F800
G1  X50.88  Z16.18  F800
G1  X50.38  Z16.19  F800
G1  X49.88  Z16.19  F800
G1  X49.38  Z16.20  F800
G1  X48.88  Z16.20  F800
G1  X22.38  Z16.20  F800
G1  Y990.00  F500
; ---- stripe Y=990.00 ----
G0  X22.38  Y990.00
G1  Y990.00  F2000
G1  X22.38  Z16.20  F800
G1  X48.88  Z16.20  F800
G1  X49.38  Z16.20  F800
G1  X49.88  Z16.19  F800
G1  X50.38  Z16.19  F800
G1  X50.88  Z16.18  F800
G1  X51.38  Z16.16  F800
G1  X51.88  Z16.14  F800
G1  X52.38  Z16.12  F800
G1  X52.88  Z16.09  F800
G1  X53.38  Z16.06  F800
G1  X53.88  Z16.03  F800
G1  X54.38  Z15.99  F800
G1  X54.88  Z15.95  F800
G1  X55.38  Z15.90  F800
G1  X55.88  Z15.85  F800
G1  X56.38  Z15.80  F800
G1  X56.88  Z15.74  F800
G1  X57.38  Z15.68  F800
G1  X57.88  Z15.62  F800
G1  X58.38  Z15.55  F800
G1  X58.88  Z15.47  F800
G1  X59.38  Z15.40  F800
G1  X59.88  Z15.32  F800
G1  X60.38  Z15.23  F800
G1  X60.88  Z15.14  F800
G1  X61.38  Z15.05  F800
G1  X61.88  Z14.95  F800
G1  X62.38  Z14.85  F800
G1  X62.88  Z14.75  F800
G1  X63.38  Z14.64  F800
G1  X63.88  Z14.52  F800
G1  X64.38  Z14.41  F800
G1  X64.88  Z14.28  F800
G1  X65.38  Z14.16  F800
G1  X65.88  Z14.03  F800
G1  X66.38  Z13.89  F800
G1  X66.88  Z13.75  F800
G1  X67.38  Z13.61  F800
G1  X67.88  Z13.46  F800
G1  X68.38  Z13.31  F800
G1  X68.88  Z13.16  F800
G1  X69.38  Z13.00  F800
G1  X69.88  Z12.83  F800
G1  X70.38  Z12.66  F800
G1  X70.88  Z12.49  F800
G1  X71.38  Z12.31  F800
G1  X71.88  Z12.13  F800
G1  X72.38  Z11.94  F800
G1  X72.88  Z11.75  F800
G1  X73.38  Z11.55  F800
G1  X73.88  Z11.35  F800
G1  X74.38  Z11.14  F800
G1  X74.88  Z10.93  F800
G1  X75.38  Z10.71  F800
G1  X75.88  Z10.49  F800
G1  X76.38  Z10.27  F800
G1  X76.88  Z10.04  F800
G1  X77.38  Z9.80  F800
G1  X77.88  Z9.56  F800
G1  X78.38  Z9.31  F800
G1  X78.88  Z9.06  F800
G1  X79.38  Z8.80  F800
G1  X79.88  Z8.54  F800
G1  X80.38  Z8.27  F800
G1  X80.88  Z8.10  F800
G1  X117.38  Z8.10  F800
G1  X117.88  Z8.27  F800
G1  X118.38  Z8.54  F800
G1  X118.88  Z8.80  F800
G1  X119.38  Z9.06  F800
G1  X119.88  Z9.31  F800
G1  X120.38  Z9.56  F800
G1  X120.88  Z9.80  F800
G1  X121.38  Z10.04  F800
G1  X121.88  Z10.27  F800
G1  X122.38  Z10.49  F800
G1  X122.88  Z10.71  F800
G1  X123.38  Z10.93  F800
G1  X123.88  Z11.14  F800
G1  X124.38  Z11.35  F800
G1  X124.88  Z11.55  F800
G1  X125.38  Z11.75  F800
G1  X125.88  Z11.94  F800
G1  X126.38  Z12.13  F800
G1  X126.88  Z12.31  F800
G1  X127.38  Z12.49  F800
G1  X127.88  Z12.66  F800
G1  X128.38  Z12.83  F800
G1  X128.88  Z13.00  F800
G1  X129.38  Z13.16  F800
G1  X129.88  Z13.31  F800
G1  X130.38  Z13.46  F800
G1  X130.88  Z13.61  F800
G1  X131.38  Z13.75  F800
G1  X131.88  Z13.89  F800
G1  X132.38  Z14.03  F800
G1  X132.88  Z14.16  F800
G1  X133.38  Z14.28  F800
G1  X133.88  Z14.41  F800
G1  X134.38  Z14.52  F800
G1  X134.88  Z14.64  F800
G1  X135.38  Z14.75  F800
G1  X135.88  Z14.85  F800
G1  X136.38  Z14.95  F800
G1  X136.88  Z15.05  F800
G1  X137.38  Z15.14  F800
G1  X137.88  Z15.23  F800
G1  X138.38  Z15.32  F800
G1  X138.88  Z15.40  F800
G1  X139.38  Z15.47  F800
G1  X139.88  Z15.55  F800
G1  X140.38  Z15.62  F800
G1  X140.88  Z15.68  F800
G1  X141.38  Z15.74  F800
G1  X141.88  Z15.80  F800
G1  X142.38  Z15.85  F800
G1  X142.88  Z15.90  F800
G1  X143.38  Z15.95  F800
G1  X143.88  Z15.99  F800
G1  X144.38  Z16.03  F800
G1  X144.88  Z16.06  F800
G1  X145.38  Z16.09  F800
G1  X145.88  Z16.12  F800
G1  X146.38  Z16.14  F800
G1  X146.88  Z16.16  F800
G1  X147.38  Z16.18  F800
G1  X147.88  Z16.19  F800
G1  X148.38  Z16.19  F800
G1  X148.88  Z16.20  F800
G1  X175.88  Z16.20  F800
G1  Y985.00  F500
; ---- stripe Y=985.00 ----
G0  X175.88  Y985.00
G1  Y985.00  F2000
G1  X175.88  Z16.20  F800
G1  X148.88  Z16.20  F800
G1  X148.38  Z16.19  F800
G1  X147.88  Z16.19  F800
G1  X147.38  Z16.18  F800
G1  X146.88  Z16.16  F800
G1  X146.38  Z16.14  F800
G1  X145.88  Z16.12  F800
G1  X145.38  Z16.09  F800
G1  X144.88  Z16.06  F800
G1  X144.38  Z16.03  F800
G1  X143.88  Z15.99  F800
G1  X143.38  Z15.95  F800
G1  X142.88  Z15.90  F800
G1  X142.38  Z15.85  F800
G1  X141.88  Z15.80  F800
G1  X141.38  Z15.74  F800
G1  X140.88  Z15.68  F800
G1  X140.38  Z15.62  F800
G1  X139.88  Z15.55  F800
G1  X139.38  Z15.47  F800
G1  X138.88  Z15.40  F800
G1  X138.38  Z15.32  F800
G1  X137.88  Z15.23  F800
G1  X137.38  Z15.14  F800
G1  X136.88  Z15.05  F800
G1  X136.38  Z14.95  F800
G1  X135.88  Z14.85  F800
G1  X135.38  Z14.75  F800
G1  X134.88  Z14.64  F800
G1  X134.38  Z14.52  F800
G1  X133.88  Z14.41  F800
G1  X133.38  Z14.28  F800
G1  X132.88  Z14.16  F800
G1  X132.38  Z14.03  F800
G1  X131.88  Z13.89  F800
G1  X131.38  Z13.75  F800
G1  X130.88  Z13.61  F800
G1  X130.38  Z13.46  F800
G1  X129.88  Z13.31  F800
G1  X129.38  Z13.16  F800
G1  X128.88  Z13.00  F800
G1  X128.38  Z12.83  F800
G1  X127.88  Z12.66  F800
G1  X127.38  Z12.49  F800
G1  X126.88  Z12.31  F800
G1  X126.38  Z12.13  F800
G1  X125.88  Z11.94  F800
G1  X125.38  Z11.75  F800
G1  X124.88  Z11.55  F800
G1  X124.38  Z11.35  F800
G1  X123.88  Z11.14  F800
G1  X123.38  Z10.93  F800
G1  X122.88  Z10.71  F800
G1  X122.38  Z10.49  F800
G1  X121.88  Z10.27  F800
G1  X121.38  Z10.04  F800
G1  X120.88  Z9.80  F800
G1  X120.38  Z9.56  F800
G1  X119.88  Z9.31  F800
G1  X119.38  Z9.06  F800
G1  X118.88  Z8.80  F800
G1  X118.38  Z8.54  F800
G1  X117.88  Z8.27  F800
G1  X117.38  Z8.10  F800
G1  X80.88  Z8.10  F800
G1  X80.38  Z8.27  F800
G1  X79.88  Z8.54  F800
G1  X79.38  Z8.80  F800
G1  X78.88  Z9.06  F800
G1  X78.38  Z9.31  F800
G1  X77.88  Z9.56  F800
G1  X77.38  Z9.80  F800
G1  X76.88  Z10.04  F800
G1  X76.38  Z10.27  F800
G1  X75.88  Z10.49  F800
G1  X75.38  Z10.71  F800
G1  X74.88  Z10.93  F800
G1  X74.38  Z11.14  F800
G1  X73.88  Z11.35  F800
G1  X73.38  Z11.55  F800
G1  X72.88  Z11.75  F800
G1  X72.38  Z11.94  F800
G1  X71.88  Z12.13  F800
G1  X71.38  Z12.31  F800
G1  X70.88  Z12.49  F800
G1  X70.38  Z12.66  F800
G1  X69.88  Z12.83  F800
G1  X69.38  Z13.00  F800
G1  X68.88  Z13.16  F800
G1  X68.38  Z13.31  F800
G1  X67.88  Z13.46  F800
G1  X67.38  Z13.61  F800
G1  X66.88  Z13.75  F800
G1  X66.38  Z13.89  F800
G1  X65.88  Z14.03  F800
G1  X65.38  Z14.16  F800
G1  X64.88  Z14.28  F800
G1  X64.38  Z14.41  F800
G1  X63.88  Z14.52  F800
G1  X63.38  Z14.64  F800
G1  X62.88  Z14.75  F800
G1  X62.38  Z14.85  F800
G1  X61.88  Z14.95  F800
G1  X61.38  Z15.05  F800
G1  X60.88  Z15.14  F800
G1  X60.38  Z15.23  F800
G1  X59.88  Z15.32  F800
G1  X59.38  Z15.40  F800
G1  X58.88  Z15.47  F800
G1  X58.38  Z15.55  F800
G1  X57.88  Z15.62  F800
G1  X57.38  Z15.68  F800
G1  X56.88  Z15.74  F800
G1  X56.38  Z15.80  F800
G1  X55.88  Z15.85  F800
G1  X55.38  Z15.90  F800
G1  X54.88  Z15.95  F800
G1  X54.38  Z15.99  F800
G1  X53.88  Z16.03  F800
G1  X53.38  Z16.06  F800
G1  X52.88  Z16.09  F800
G1  X52.38  Z16.12  F800
G1  X51.88  Z16.14  F800
G1  X51.38  Z16.16  F800
G1  X50.88  Z16.18  F800
G1  X50.38  Z16.19  F800
G1  X49.88  Z16.19  F800
G1  X49.38  Z16.20  F800
G1  X48.88  Z16.20  F800
G1  X22.38  Z16.20  F800
G1  Y980.00  F500
; ---- stripe Y=980.00 ----
G0  X22.38  Y980.00
G1  Y980.00  F2000
G1  X22.38  Z16.20  F800
G1  X48.88  Z16.20  F800
G1  X49.38  Z16.20  F800
G1  X49.88  Z16.19  F800
G1  X50.38  Z16.19  F800
G1  X50.88  Z16.18  F800
G1  X51.38  Z16.16  F800
G1  X51.88  Z16.14  F800
G1  X52.38  Z16.12  F800
G1  X52.88  Z16.09  F800
G1  X53.38  Z16.06  F800
G1  X53.88  Z16.03  F800
G1  X54.38  Z15.99  F800
G1  X54.88  Z15.95  F800
G1  X55.38  Z15.90  F800
G1  X55.88  Z15.85  F800
G1  X56.38  Z15.80  F800
G1  X56.88  Z15.74  F800
G1  X57.38  Z15.68  F800
G1  X57.88  Z15.62  F800
G1  X58.38  Z15.55  F800
G1  X58.88  Z15.47  F800
G1  X59.38  Z15.40  F800
G1  X59.88  Z15.32  F800
G1  X60.38  Z15.23  F800
G1  X60.88  Z15.14  F800
G1  X61.38  Z15.05  F800
G1  X61.88  Z14.95  F800
G1  X62.38  Z14.85  F800
G1  X62.88  Z14.75  F800
G1  X63.38  Z14.64  F800
G1  X63.88  Z14.52  F800
G1  X64.38  Z14.41  F800
G1  X64.88  Z14.28  F800
G1  X65.38  Z14.16  F800
G1  X65.88  Z14.03  F800
G1  X66.38  Z13.89  F800
G1  X66.88  Z13.75  F800
G1  X67.38  Z13.61  F800
G1  X67.88  Z13.46  F800
G1  X68.38  Z13.31  F800
G1  X68.88  Z13.16  F800
G1  X69.38  Z13.00  F800
G1  X69.88  Z12.83  F800
G1  X70.38  Z12.66  F800
G1  X70.88  Z12.49  F800
G1  X71.38  Z12.31  F800
G1  X71.88  Z12.13  F800
G1  X72.38  Z11.94  F800
G1  X72.88  Z11.75  F800
G1  X73.38  Z11.55  F800
G1  X73.88  Z11.35  F800
G1  X74.38  Z11.14  F800
G1  X74.88  Z10.93  F800
G1  X75.38  Z10.71  F800
G1  X75.88  Z10.49  F800
G1  X76.38  Z10.27  F800
G1  X76.88  Z10.04  F800
G1  X77.38  Z9.80  F800
G1  X77.88  Z9.56  F800
G1  X78.38  Z9.31  F800
G1  X78.88  Z9.06  F800
G1  X79.38  Z8.80  F800
G1  X79.88  Z8.54  F800
G1  X80.38  Z8.27  F800
G1  X80.88  Z8.10  F800
G1  X117.38  Z8.10  F800
G1  X117.88  Z8.27  F800
G1  X118.38  Z8.54  F800
G1  X118.88  Z8.80  F800
G1  X119.38  Z9.06  F800
G1  X119.88  Z9.31  F800
G1  X120.38  Z9.56  F800
G1  X120.88  Z9.80  F800
G1  X121.38  Z10.04  F800
G1  X121.88  Z10.27  F800
G1  X122.38  Z10.49  F800
G1  X122.88  Z10.71  F800
G1  X123.38  Z10.93  F800
G1  X123.88  Z11.14  F800
G1  X124.38  Z11.35  F800
G1  X124.88  Z11.55  F800
G1  X125.38  Z11.75  F800
G1  X125.88  Z11.94  F800
G1  X126.38  Z12.13  F800
G1  X126.88  Z12.31  F800
G1  X127.38  Z12.49  F800
G1  X127.88  Z12.66  F800
G1  X128.38  Z12.83  F800
G1  X128.88  Z13.00  F800
G1  X129.38  Z13.16  F800
G1  X129.88  Z13.31  F800
G1  X130.38  Z13.46  F800
G1  X130.88  Z13.61  F800
G1  X131.38  Z13.75  F800
G1  X131.88  Z13.89  F800
G1  X132.38  Z14.03  F800
G1  X132.88  Z14.16  F800
G1  X133.38  Z14.28  F800
G1  X133.88  Z14.41  F800
G1  X134.38  Z14.52  F800
G1  X134.88  Z14.64  F800
G1  X135.38  Z14.75  F800
G1  X135.88  Z14.85  F800
G1  X136.38  Z14.95  F800
G1  X136.88  Z15.05  F800
G1  X137.38  Z15.14  F800
G1  X137.88  Z15.23  F800
G1  X138.38  Z15.32  F800
G1  X138.88  Z15.40  F800
G1  X139.38  Z15.47  F800
G1  X139.88  Z15.55  F800
G1  X140.38  Z15.62  F800
G1  X140.88  Z15.68  F800
G1  X141.38  Z15.74  F800
G1  X141.88  Z15.80  F800
G1  X142.38  Z15.85  F800
G1  X142.88  Z15.90  F800
G1  X143.38  Z15.95  F800
G1  X143.88  Z15.99  F800
G1  X144.38  Z16.03  F800
G1  X144.88  Z16.06  F800
G1  X145.38  Z16.09  F800
G1  X145.88  Z16.12  F800
G1  X146.38  Z16.14  F800
G1  X146.88  Z16.16  F800
G1  X147.38  Z16.18  F800
G1  X147.88  Z16.19  F800
G1  X148.38  Z16.19  F800
G1  X148.88  Z16.20  F800
G1  X175.88  Z16.20  F800
G1  Y975.00  F500
; ---- stripe Y=975.00 ----
G0  X175.88  Y975.00
G1  Y975.00  F2000
G1  X175.88  Z16.20  F800
G1  X148.88  Z16.20  F800
G1  X148.38  Z16.19  F800
G1  X147.88  Z16.19  F800
G1  X147.38  Z16.18  F800
G1  X146.88  Z16.16  F800
G1  X146.38  Z16.14  F800
G1  X145.88  Z16.12  F800
G1  X145.38  Z16.09  F800
G1  X144.88  Z16.06  F800
G1  X144.38  Z16.03  F800
G1  X143.88  Z15.99  F800
G1  X143.38  Z15.95  F800
G1  X142.88  Z15.90  F800
G1  X142.38  Z15.85  F800
G1  X141.88  Z15.80  F800
G1  X141.38  Z15.74  F800
G1  X140.88  Z15.68  F800
G1  X140.38  Z15.62  F800
G1  X139.88  Z15.55  F800
G1  X139.38  Z15.47  F800
G1  X138.88  Z15.40  F800
G1  X138.38  Z15.32  F800
G1  X137.88  Z15.23  F800
G1  X137.38  Z15.14  F800
G1  X136.88  Z15.05  F800
G1  X136.38  Z14.95  F800
G1  X135.88  Z14.85  F800
G1  X135.38  Z14.75  F800
G1  X134.88  Z14.64  F800
G1  X134.38  Z14.52  F800
G1  X133.88  Z14.41  F800
G1  X133.38  Z14.28  F800
G1  X132.88  Z14.16  F800
G1  X132.38  Z14.03  F800
G1  X131.88  Z13.89  F800
G1  X131.38  Z13.75  F800
G1  X130.88  Z13.61  F800
G1  X130.38  Z13.46  F800
G1  X129.88  Z13.31  F800
G1  X129.38  Z13.16  F800
G1  X128.88  Z13.00  F800
G1  X128.38  Z12.83  F800
G1  X127.88  Z12.66  F800
G1  X127.38  Z12.49  F800
G1  X126.88  Z12.31  F800
G1  X126.38  Z12.13  F800
G1  X125.88  Z11.94  F800
G1  X125.38  Z11.75  F800
G1  X124.88  Z11.55  F800
G1  X124.38  Z11.35  F800
G1  X123.88  Z11.14  F800
G1  X123.38  Z10.93  F800
G1  X122.88  Z10.71  F800
G1  X122.38  Z10.49  F800
G1  X121.88  Z10.27  F800
G1  X121.38  Z10.04  F800
G1  X120.88  Z9.80  F800
G1  X120.38  Z9.56  F800
G1  X119.88  Z9.31  F800
G1  X119.38  Z9.06  F800
G1  X118.88  Z8.80  F800
G1  X118.38  Z8.54  F800
G1  X117.88  Z8.27  F800
G1  X117.38  Z8.10  F800
G1  X80.88  Z8.10  F800
G1  X80.38  Z8.27  F800
G1  X79.88  Z8.54  F800
G1  X79.38  Z8.80  F800
G1  X78.88  Z9.06  F800
G1  X78.38  Z9.31  F800
G1  X77.88  Z9.56  F800
G1  X77.38  Z9.80  F800
G1  X76.88  Z10.04  F800
G1  X76.38  Z10.27  F800
G1  X75.88  Z10.49  F800
G1  X75.38  Z10.71  F800
G1  X74.88  Z10.93  F800
G1  X74.38  Z11.14  F800
G1  X73.88  Z11.35  F800
G1  X73.38  Z11.55  F800
G1  X72.88  Z11.75  F800
G1  X72.38  Z11.94  F800
G1  X71.88  Z12.13  F800
G1  X71.38  Z12.31  F800
G1  X70.88  Z12.49  F800
G1  X70.38  Z12.66  F800
G1  X69.88  Z12.83  F800
G1  X69.38  Z13.00  F800
G1  X68.88  Z13.16  F800
G1  X68.38  Z13.31  F800
G1  X67.88  Z13.46  F800
G1  X67.38  Z13.61  F800
G1  X66.88  Z13.75  F800
G1  X66.38  Z13.89  F800
G1  X65.88  Z14.03  F800
G1  X65.38  Z14.16  F800
G1  X64.88  Z14.28  F800
G1  X64.38  Z14.41  F800
G1  X63.88  Z14.52  F800
G1  X63.38  Z14.64  F800
G1  X62.88  Z14.75  F800
G1  X62.38  Z14.85  F800
G1  X61.88  Z14.95  F800
G1  X61.38  Z15.05  F800
G1  X60.88  Z15.14  F800
G1  X60.38  Z15.23  F800
G1  X59.88  Z15.32  F800
G1  X59.38  Z15.40  F800
G1  X58.88  Z15.47  F800
G1  X58.38  Z15.55  F800
G1  X57.88  Z15.62  F800
G1  X57.38  Z15.68  F800
G1  X56.88  Z15.74  F800
G1  X56.38  Z15.80  F800
G1  X55.88  Z15.85  F800
G1  X55.38  Z15.90  F800
G1  X54.88  Z15.95  F800
G1  X54.38  Z15.99  F800
G1  X53.88  Z16.03  F800
G1  X53.38  Z16.06  F800
G1  X52.88  Z16.09  F800
G1  X52.38  Z16.12  F800
G1  X51.88  Z16.14  F800
G1  X51.38  Z16.16  F800
G1  X50.88  Z16.18  F800
G1  X50.38  Z16.19  F800
G1  X49.88  Z16.19  F800
G1  X49.38  Z16.20  F800
G1  X48.88  Z16.20  F800
G1  X22.38  Z16.20  F800
G1  Y970.00  F500
; ---- stripe Y=970.00 ----
G0  X22.38  Y970.00
G1  Y970.00  F2000
G1  X22.38  Z16.20  F800
G1  X48.88  Z16.20  F800
G1  X49.38  Z16.20  F800
G1  X49.88  Z16.19  F800
G1  X50.38  Z16.19  F800
G1  X50.88  Z16.18  F800
G1  X51.38  Z16.16  F800
G1  X51.88  Z16.14  F800
G1  X52.38  Z16.12  F800
G1  X52.88  Z16.09  F800
G1  X53.38  Z16.06  F800
G1  X53.88  Z16.03  F800
G1  X54.38  Z15.99  F800
G1  X54.88  Z15.95  F800
G1  X55.38  Z15.90  F800
G1  X55.88  Z15.85  F800
G1  X56.38  Z15.80  F800
G1  X56.88  Z15.74  F800
G1  X57.38  Z15.68  F800
G1  X57.88  Z15.62  F800
G1  X58.38  Z15.55  F800
G1  X58.88  Z15.47  F800
G1  X59.38  Z15.40  F800
G1  X59.88  Z15.32  F800
G1  X60.38  Z15.23  F800
G1  X60.88  Z15.14  F800
G1  X61.38  Z15.05  F800
G1  X61.88  Z14.95  F800
G1  X62.38  Z14.85  F800
G1  X62.88  Z14.75  F800
G1  X63.38  Z14.64  F800
G1  X63.88  Z14.52  F800
G1  X64.38  Z14.41  F800
G1  X64.88  Z14.28  F800
G1  X65.38  Z14.16  F800
G1  X65.88  Z14.03  F800
G1  X66.38  Z13.89  F800
G1  X66.88  Z13.75  F800
G1  X67.38  Z13.61  F800
G1  X67.88  Z13.46  F800
G1  X68.38  Z13.31  F800
G1  X68.88  Z13.16  F800
G1  X69.38  Z13.00  F800
G1  X69.88  Z12.83  F800
G1  X70.38  Z12.66  F800
G1  X70.88  Z12.49  F800
G1  X71.38  Z12.31  F800
G1  X71.88  Z12.13  F800
G1  X72.38  Z11.94  F800
G1  X72.88  Z11.75  F800
G1  X73.38  Z11.55  F800
G1  X73.88  Z11.35  F800
G1  X74.38  Z11.14  F800
G1  X74.88  Z10.93  F800
G1  X75.38  Z10.71  F800
G1  X75.88  Z10.49  F800
G1  X76.38  Z10.27  F800
G1  X76.88  Z10.04  F800
G1  X77.38  Z9.80  F800
G1  X77.88  Z9.56  F800
G1  X78.38  Z9.31  F800
G1  X78.88  Z9.06  F800
G1  X79.38  Z8.80  F800
G1  X79.88  Z8.54  F800
G1  X80.38  Z8.27  F800
G1  X80.88  Z8.10  F800
G1  X117.38  Z8.10  F800
G1  X117.88  Z8.27  F800
G1  X118.38  Z8.54  F800
G1  X118.88  Z8.80  F800
G1  X119.38  Z9.06  F800
G1  X119.88  Z9.31  F800
G1  X120.38  Z9.56  F800
G1  X120.88  Z9.80  F800
G1  X121.38  Z10.04  F800
G1  X121.88  Z10.27  F800
G1  X122.38  Z10.49  F800
G1  X122.88  Z10.71  F800
G1  X123.38  Z10.93  F800
G1  X123.88  Z11.14  F800
G1  X124.38  Z11.35  F800
G1  X124.88  Z11.55  F800
G1  X125.38  Z11.75  F800
G1  X125.88  Z11.94  F800
G1  X126.38  Z12.13  F800
G1  X126.88  Z12.31  F800
G1  X127.38  Z12.49  F800
G1  X127.88  Z12.66  F800
G1  X128.38  Z12.83  F800
G1  X128.88  Z13.00  F800
G1  X129.38  Z13.16  F800
G1  X129.88  Z13.31  F800
G1  X130.38  Z13.46  F800
G1  X130.88  Z13.61  F800
G1  X131.38  Z13.75  F800
G1  X131.88  Z13.89  F800
G1  X132.38  Z14.03  F800
G1  X132.88  Z14.16  F800
G1  X133.38  Z14.28  F800
G1  X133.88  Z14.41  F800
G1  X134.38  Z14.52  F800
G1  X134.88  Z14.64  F800
G1  X135.38  Z14.75  F800
G1  X135.88  Z14.85  F800
G1  X136.38  Z14.95  F800
G1  X136.88  Z15.05  F800
G1  X137.38  Z15.14  F800
G1  X137.88  Z15.23  F800
G1  X138.38  Z15.32  F800
G1  X138.88  Z15.40  F800
G1  X139.38  Z15.47  F800
G1  X139.88  Z15.55  F800
G1  X140.38  Z15.62  F800
G1  X140.88  Z15.68  F800
G1  X141.38  Z15.74  F800
G1  X141.88  Z15.80  F800
G1  X142.38  Z15.85  F800
G1  X142.88  Z15.90  F800
G1  X143.38  Z15.95  F800
G1  X143.88  Z15.99  F800
G1  X144.38  Z16.03  F800
G1  X144.88  Z16.06  F800
G1  X145.38  Z16.09  F800
G1  X145.88  Z16.12  F800
G1  X146.38  Z16.14  F800
G1  X146.88  Z16.16  F800
G1  X147.38  Z16.18  F800
G1  X147.88  Z16.19  F800
G1  X148.38  Z16.19  F800
G1  X148.88  Z16.20  F800
G1  X175.88  Z16.20  F800
G1  Y965.00  F500
; ---- stripe Y=965.00 ----
G0  X175.88  Y965.00
G1  Y965.00  F2000
G1  X175.88  Z16.20  F800
G1  X148.88  Z16.20  F800
G1  X148.38  Z16.19  F800
G1  X147.88  Z16.19  F800
G1  X147.38  Z16.18  F800
G1  X146.88  Z16.16  F800
G1  X146.38  Z16.14  F800
G1  X145.88  Z16.12  F800
G1  X145.38  Z16.09  F800
G1  X144.88  Z16.06  F800
G1  X144.38  Z16.03  F800
G1  X143.88  Z15.99  F800
G1  X143.38  Z15.95  F800
G1  X142.88  Z15.90  F800
G1  X142.38  Z15.85  F800
G1  X141.88  Z15.80  F800
G1  X141.38  Z15.74  F800
G1  X140.88  Z15.68  F800
G1  X140.38  Z15.62  F800
G1  X139.88  Z15.55  F800
G1  X139.38  Z15.47  F800
G1  X138.88  Z15.40  F800
G1  X138.38  Z15.32  F800
G1  X137.88  Z15.23  F800
G1  X137.38  Z15.14  F800
G1  X136.88  Z15.05  F800
G1  X136.38  Z14.95  F800
G1  X135.88  Z14.85  F800
G1  X135.38  Z14.75  F800
G1  X134.88  Z14.64  F800
G1  X134.38  Z14.52  F800
G1  X133.88  Z14.41  F800
G1  X133.38  Z14.28  F800
G1  X132.88  Z14.16  F800
G1  X132.38  Z14.03  F800
G1  X131.88  Z13.89  F800
G1  X131.38  Z13.75  F800
G1  X130.88  Z13.61  F800
G1  X130.38  Z13.46  F800
G1  X129.88  Z13.31  F800
G1  X129.38  Z13.16  F800
G1  X128.88  Z13.00  F800
G1  X128.38  Z12.83  F800
G1  X127.88  Z12.66  F800
G1  X127.38  Z12.49  F800
G1  X126.88  Z12.31  F800
G1  X126.38  Z12.13  F800
G1  X125.88  Z11.94  F800
G1  X125.38  Z11.75  F800
G1  X124.88  Z11.55  F800
G1  X124.38  Z11.35  F800
G1  X123.88  Z11.14  F800
G1  X123.38  Z10.93  F800
G1  X122.88  Z10.71  F800
G1  X122.38  Z10.49  F800
G1  X121.88  Z10.27  F800
G1  X121.38  Z10.04  F800
G1  X120.88  Z9.80  F800
G1  X120.38  Z9.56  F800
G1  X119.88  Z9.31  F800
G1  X119.38  Z9.06  F800
G1  X118.88  Z8.80  F800
G1  X118.38  Z8.54  F800
G1  X117.88  Z8.27  F800
G1  X117.38  Z8.10  F800
G1  X80.88  Z8.10  F800
G1  X80.38  Z8.27  F800
G1  X79.88  Z8.54  F800
G1  X79.38  Z8.80  F800
G1  X78.88  Z9.06  F800
G1  X78.38  Z9.31  F800
G1  X77.88  Z9.56  F800
G1  X77.38  Z9.80  F800
G1  X76.88  Z10.04  F800
G1  X76.38  Z10.27  F800
G1  X75.88  Z10.49  F800
G1  X75.38  Z10.71  F800
G1  X74.88  Z10.93  F800
G1  X74.38  Z11.14  F800
G1  X73.88  Z11.35  F800
G1  X73.38  Z11.55  F800
G1  X72.88  Z11.75  F800
G1  X72.38  Z11.94  F800
G1  X71.88  Z12.13  F800
G1  X71.38  Z12.31  F800
G1  X70.88  Z12.49  F800
G1  X70.38  Z12.66  F800
G1  X69.88  Z12.83  F800
G1  X69.38  Z13.00  F800
G1  X68.88  Z13.16  F800
G1  X68.38  Z13.31  F800
G1  X67.88  Z13.46  F800
G1  X67.38  Z13.61  F800
G1  X66.88  Z13.75  F800
G1  X66.38  Z13.89  F800
G1  X65.88  Z14.03  F800
G1  X65.38  Z14.16  F800
G1  X64.88  Z14.28  F800
G1  X64.38  Z14.41  F800
G1  X63.88  Z14.52  F800
G1  X63.38  Z14.64  F800
G1  X62.88  Z14.75  F800
G1  X62.38  Z14.85  F800
G1  X61.88  Z14.95  F800
G1  X61.38  Z15.05  F800
G1  X60.88  Z15.14  F800
G1  X60.38  Z15.23  F800
G1  X59.88  Z15.32  F800
G1  X59.38  Z15.40  F800
G1  X58.88  Z15.47  F800
G1  X58.38  Z15.55  F800
G1  X57.88  Z15.62  F800
G1  X57.38  Z15.68  F800
G1  X56.88  Z15.74  F800
G1  X56.38  Z15.80  F800
G1  X55.88  Z15.85  F800
G1  X55.38  Z15.90  F800
G1  X54.88  Z15.95  F800
G1  X54.38  Z15.99  F800
G1  X53.88  Z16.03  F800
G1  X53.38  Z16.06  F800
G1  X52.88  Z16.09  F800
G1  X52.38  Z16.12  F800
G1  X51.88  Z16.14  F800
G1  X51.38  Z16.16  F800
G1  X50.88  Z16.18  F800
G1  X50.38  Z16.19  F800
G1  X49.88  Z16.19  F800
G1  X49.38  Z16.20  F800
G1  X48.88  Z16.20  F800
G1  X22.38  Z16.20  F800
G1  Y960.00  F500
; ---- stripe Y=960.00 ----
G0  X22.38  Y960.00
G1  Y960.00  F2000
G1  X22.38  Z16.20  F800
G1  X48.88  Z16.20  F800
G1  X49.38  Z16.20  F800
G1  X49.88  Z16.19  F800
G1  X50.38  Z16.19  F800
G1  X50.88  Z16.18  F800
G1  X51.38  Z16.16  F800
G1  X51.88  Z16.14  F800
G1  X52.38  Z16.12  F800
G1  X52.88  Z16.09  F800
G1  X53.38  Z16.06  F800
G1  X53.88  Z16.03  F800
G1  X54.38  Z15.99  F800
G1  X54.88  Z15.95  F800
G1  X55.38  Z15.90  F800
G1  X55.88  Z15.85  F800
G1  X56.38  Z15.80  F800
G1  X56.88  Z15.74  F800
G1  X57.38  Z15.68  F800
G1  X57.88  Z15.62  F800
G1  X58.38  Z15.55  F800
G1  X58.88  Z15.47  F800
G1  X59.38  Z15.40  F800
G1  X59.88  Z15.32  F800
G1  X60.38  Z15.23  F800
G1  X60.88  Z15.14  F800
G1  X61.38  Z15.05  F800
G1  X61.88  Z14.95  F800
G1  X62.38  Z14.85  F800
G1  X62.88  Z14.75  F800
G1  X63.38  Z14.64  F800
G1  X63.88  Z14.52  F800
G1  X64.38  Z14.41  F800
G1  X64.88  Z14.28  F800
G1  X65.38  Z14.16  F800
G1  X65.88  Z14.03  F800
G1  X66.38  Z13.89  F800
G1  X66.88  Z13.75  F800
G1  X67.38  Z13.61  F800
G1  X67.88  Z13.46  F800
G1  X68.38  Z13.31  F800
G1  X68.88  Z13.16  F800
G1  X69.38  Z13.00  F800
G1  X69.88  Z12.83  F800
G1  X70.38  Z12.66  F800
G1  X70.88  Z12.49  F800
G1  X71.38  Z12.31  F800
G1  X71.88  Z12.13  F800
G1  X72.38  Z11.94  F800
G1  X72.88  Z11.75  F800
G1  X73.38  Z11.55  F800
G1  X73.88  Z11.35  F800
G1  X74.38  Z11.14  F800
G1  X74.88  Z10.93  F800
G1  X75.38  Z10.71  F800
G1  X75.88  Z10.49  F800
G1  X76.38  Z10.27  F800
G1  X76.88  Z10.04  F800
G1  X77.38  Z9.80  F800
G1  X77.88  Z9.56  F800
G1  X78.38  Z9.31  F800
G1  X78.88  Z9.06  F800
G1  X79.38  Z8.80  F800
G1  X79.88  Z8.54  F800
G1  X80.38  Z8.27  F800
G1  X80.88  Z8.10  F800
G1  X117.38  Z8.10  F800
G1  X117.88  Z8.27  F800
G1  X118.38  Z8.54  F800
G1  X118.88  Z8.80  F800
G1  X119.38  Z9.06  F800
G1  X119.88  Z9.31  F800
G1  X120.38  Z9.56  F800
G1  X120.88  Z9.80  F800
G1  X121.38  Z10.04  F800
G1  X121.88  Z10.27  F800
G1  X122.38  Z10.49  F800
G1  X122.88  Z10.71  F800
G1  X123.38  Z10.93  F800
G1  X123.88  Z11.14  F800
G1  X124.38  Z11.35  F800
G1  X124.88  Z11.55  F800
G1  X125.38  Z11.75  F800
G1  X125.88  Z11.94  F800
G1  X126.38  Z12.13  F800
G1  X126.88  Z12.31  F800
G1  X127.38  Z12.49  F800
G1  X127.88  Z12.66  F800
G1  X128.38  Z12.83  F800
G1  X128.88  Z13.00  F800
G1  X129.38  Z13.16  F800
G1  X129.88  Z13.31  F800
G1  X130.38  Z13.46  F800
G1  X130.88  Z13.61  F800
G1  X131.38  Z13.75  F800
G1  X131.88  Z13.89  F800
G1  X132.38  Z14.03  F800
G1  X132.88  Z14.16  F800
G1  X133.38  Z14.28  F800
G1  X133.88  Z14.41  F800
G1  X134.38  Z14.52  F800
G1  X134.88  Z14.64  F800
G1  X135.38  Z14.75  F800
G1  X135.88  Z14.85  F800
G1  X136.38  Z14.95  F800
G1  X136.88  Z15.05  F800
G1  X137.38  Z15.14  F800
G1  X137.88  Z15.23  F800
G1  X138.38  Z15.32  F800
G1  X138.88  Z15.40  F800
G1  X139.38  Z15.47  F800
G1  X139.88  Z15.55  F800
G1  X140.38  Z15.62  F800
G1  X140.88  Z15.68  F800
G1  X141.38  Z15.74  F800
G1  X141.88  Z15.80  F800
G1  X142.38  Z15.85  F800
G1  X142.88  Z15.90  F800
G1  X143.38  Z15.95  F800
G1  X143.88  Z15.99  F800
G1  X144.38  Z16.03  F800
G1  X144.88  Z16.06  F800
G1  X145.38  Z16.09  F800
G1  X145.88  Z16.12  F800
G1  X146.38  Z16.14  F800
G1  X146.88  Z16.16  F800
G1  X147.38  Z16.18  F800
G1  X147.88  Z16.19  F800
G1  X148.38  Z16.19  F800
G1  X148.88  Z16.20  F800
G1  X175.88  Z16.20  F800
G1  Y955.00  F500
; ---- stripe Y=955.00 ----
G0  X175.88  Y955.00
G1  Y955.00  F2000
G1  X175.88  Z16.20  F800
G1  X148.88  Z16.20  F800
G1  X148.38  Z16.19  F800
G1  X147.88  Z16.19  F800
G1  X147.38  Z16.18  F800
G1  X146.88  Z16.16  F800
G1  X146.38  Z16.14  F800
G1  X145.88  Z16.12  F800
G1  X145.38  Z16.09  F800
G1  X144.88  Z16.06  F800
G1  X144.38  Z16.03  F800
G1  X143.88  Z15.99  F800
G1  X143.38  Z15.95  F800
G1  X142.88  Z15.90  F800
G1  X142.38  Z15.85  F800
G1  X141.88  Z15.80  F800
G1  X141.38  Z15.74  F800
G1  X140.88  Z15.68  F800
G1  X140.38  Z15.62  F800
G1  X139.88  Z15.55  F800
G1  X139.38  Z15.47  F800
G1  X138.88  Z15.40  F800
G1  X138.38  Z15.32  F800
G1  X137.88  Z15.23  F800
G1  X137.38  Z15.14  F800
G1  X136.88  Z15.05  F800
G1  X136.38  Z14.95  F800
G1  X135.88  Z14.85  F800
G1  X135.38  Z14.75  F800
G1  X134.88  Z14.64  F800
G1  X134.38  Z14.52  F800
G1  X133.88  Z14.41  F800
G1  X133.38  Z14.28  F800
G1  X132.88  Z14.16  F800
G1  X132.38  Z14.03  F800
G1  X131.88  Z13.89  F800
G1  X131.38  Z13.75  F800
G1  X130.88  Z13.61  F800
G1  X130.38  Z13.46  F800
G1  X129.88  Z13.31  F800
G1  X129.38  Z13.16  F800
G1  X128.88  Z13.00  F800
G1  X128.38  Z12.83  F800
G1  X127.88  Z12.66  F800
G1  X127.38  Z12.49  F800
G1  X126.88  Z12.31  F800
G1  X126.38  Z12.13  F800
G1  X125.88  Z11.94  F800
G1  X125.38  Z11.75  F800
G1  X124.88  Z11.55  F800
G1  X124.38  Z11.35  F800
G1  X123.88  Z11.14  F800
G1  X123.38  Z10.93  F800
G1  X122.88  Z10.71  F800
G1  X122.38  Z10.49  F800
G1  X121.88  Z10.27  F800
G1  X121.38  Z10.04  F800
G1  X120.88  Z9.80  F800
G1  X120.38  Z9.56  F800
G1  X119.88  Z9.31  F800
G1  X119.38  Z9.06  F800
G1  X118.88  Z8.80  F800
G1  X118.38  Z8.54  F800
G1  X117.88  Z8.27  F800
G1  X117.38  Z8.10  F800
G1  X80.88  Z8.10  F800
G1  X80.38  Z8.27  F800
G1  X79.88  Z8.54  F800
G1  X79.38  Z8.80  F800
G1  X78.88  Z9.06  F800
G1  X78.38  Z9.31  F800
G1  X77.88  Z9.56  F800
G1  X77.38  Z9.80  F800
G1  X76.88  Z10.04  F800
G1  X76.38  Z10.27  F800
G1  X75.88  Z10.49  F800
G1  X75.38  Z10.71  F800
G1  X74.88  Z10.93  F800
G1  X74.38  Z11.14  F800
G1  X73.88  Z11.35  F800
G1  X73.38  Z11.55  F800
G1  X72.88  Z11.75  F800
G1  X72.38  Z11.94  F800
G1  X71.88  Z12.13  F800
G1  X71.38  Z12.31  F800
G1  X70.88  Z12.49  F800
G1  X70.38  Z12.66  F800
G1  X69.88  Z12.83  F800
G1  X69.38  Z13.00  F800
G1  X68.88  Z13.16  F800
G1  X68.38  Z13.31  F800
G1  X67.88  Z13.46  F800
G1  X67.38  Z13.61  F800
G1  X66.88  Z13.75  F800
G1  X66.38  Z13.89  F800
G1  X65.88  Z14.03  F800
G1  X65.38  Z14.16  F800
G1  X64.88  Z14.28  F800
G1  X64.38  Z14.41  F800
G1  X63.88  Z14.52  F800
G1  X63.38  Z14.64  F800
G1  X62.88  Z14.75  F800
G1  X62.38  Z14.85  F800
G1  X61.88  Z14.95  F800
G1  X61.38  Z15.05  F800
G1  X60.88  Z15.14  F800
G1  X60.38  Z15.23  F800
G1  X59.88  Z15.32  F800
G1  X59.38  Z15.40  F800
G1  X58.88  Z15.47  F800
G1  X58.38  Z15.55  F800
G1  X57.88  Z15.62  F800
G1  X57.38  Z15.68  F800
G1  X56.88  Z15.74  F800
G1  X56.38  Z15.80  F800
G1  X55.88  Z15.85  F800
G1  X55.38  Z15.90  F800
G1  X54.88  Z15.95  F800
G1  X54.38  Z15.99  F800
G1  X53.88  Z16.03  F800
G1  X53.38  Z16.06  F800
G1  X52.88  Z16.09  F800
G1  X52.38  Z16.12  F800
G1  X51.88  Z16.14  F800
G1  X51.38  Z16.16  F800
G1  X50.88  Z16.18  F800
G1  X50.38  Z16.19  F800
G1  X49.88  Z16.19  F800
G1  X49.38  Z16.20  F800
G1  X48.88  Z16.20  F800
G1  X22.38  Z16.20  F800
G1  Y950.00  F500
; ---- stripe Y=950.00 ----
G0  X22.38  Y950.00
G1  Y950.00  F2000
G1  X22.38  Z16.20  F800
G1  X48.88  Z16.20  F800
G1  X49.38  Z16.20  F800
G1  X49.88  Z16.19  F800
G1  X50.38  Z16.19  F800
G1  X50.88  Z16.18  F800
G1  X51.38  Z16.16  F800
G1  X51.88  Z16.14  F800
G1  X52.38  Z16.12  F800
G1  X52.88  Z16.09  F800
G1  X53.38  Z16.06  F800
G1  X53.88  Z16.03  F800
G1  X54.38  Z15.99  F800
G1  X54.88  Z15.95  F800
G1  X55.38  Z15.90  F800
G1  X55.88  Z15.85  F800
G1  X56.38  Z15.80  F800
G1  X56.88  Z15.74  F800
G1  X57.38  Z15.68  F800
G1  X57.88  Z15.62  F800
G1  X58.38  Z15.55  F800
G1  X58.88  Z15.47  F800
G1  X59.38  Z15.40  F800
G1  X59.88  Z15.32  F800
G1  X60.38  Z15.23  F800
G1  X60.88  Z15.14  F800
G1  X61.38  Z15.05  F800
G1  X61.88  Z14.95  F800
G1  X62.38  Z14.85  F800
G1  X62.88  Z14.75  F800
G1  X63.38  Z14.64  F800
G1  X63.88  Z14.52  F800
G1  X64.38  Z14.41  F800
G1  X64.88  Z14.28  F800
G1  X65.38  Z14.16  F800
G1  X65.88  Z14.03  F800
G1  X66.38  Z13.89  F800
G1  X66.88  Z13.75  F800
G1  X67.38  Z13.61  F800
G1  X67.88  Z13.46  F800
G1  X68.38  Z13.31  F800
G1  X68.88  Z13.16  F800
G1  X69.38  Z13.00  F800
G1  X69.88  Z12.83  F800
G1  X70.38  Z12.66  F800
G1  X70.88  Z12.49  F800
G1  X71.38  Z12.31  F800
G1  X71.88  Z12.13  F800
G1  X72.38  Z11.94  F800
G1  X72.88  Z11.75  F800
G1  X73.38  Z11.55  F800
G1  X73.88  Z11.35  F800
G1  X74.38  Z11.14  F800
G1  X74.88  Z10.93  F800
G1  X75.38  Z10.71  F800
G1  X75.88  Z10.49  F800
G1  X76.38  Z10.27  F800
G1  X76.88  Z10.04  F800
G1  X77.38  Z9.80  F800
G1  X77.88  Z9.56  F800
G1  X78.38  Z9.31  F800
G1  X78.88  Z9.06  F800
G1  X79.38  Z8.80  F800
G1  X79.88  Z8.54  F800
G1  X80.38  Z8.27  F800
G1  X80.88  Z8.10  F800
G1  X117.38  Z8.10  F800
G1  X117.88  Z8.27  F800
G1  X118.38  Z8.54  F800
G1  X118.88  Z8.80  F800
G1  X119.38  Z9.06  F800
G1  X119.88  Z9.31  F800
G1  X120.38  Z9.56  F800
G1  X120.88  Z9.80  F800
G1  X121.38  Z10.04  F800
G1  X121.88  Z10.27  F800
G1  X122.38  Z10.49  F800
G1  X122.88  Z10.71  F800
G1  X123.38  Z10.93  F800
G1  X123.88  Z11.14  F800
G1  X124.38  Z11.35  F800
G1  X124.88  Z11.55  F800
G1  X125.38  Z11.75  F800
G1  X125.88  Z11.94  F800
G1  X126.38  Z12.13  F800
G1  X126.88  Z12.31  F800
G1  X127.38  Z12.49  F800
G1  X127.88  Z12.66  F800
G1  X128.38  Z12.83  F800
G1  X128.88  Z13.00  F800
G1  X129.38  Z13.16  F800
G1  X129.88  Z13.31  F800
G1  X130.38  Z13.46  F800
G1  X130.88  Z13.61  F800
G1  X131.38  Z13.75  F800
G1  X131.88  Z13.89  F800
G1  X132.38  Z14.03  F800
G1  X132.88  Z14.16  F800
G1  X133.38  Z14.28  F800
G1  X133.88  Z14.41  F800
G1  X134.38  Z14.52  F800
G1  X134.88  Z14.64  F800
G1  X135.38  Z14.75  F800
G1  X135.88  Z14.85  F800
G1  X136.38  Z14.95  F800
G1  X136.88  Z15.05  F800
G1  X137.38  Z15.14  F800
G1  X137.88  Z15.23  F800
G1  X138.38  Z15.32  F800
G1  X138.88  Z15.40  F800
G1  X139.38  Z15.47  F800
G1  X139.88  Z15.55  F800
G1  X140.38  Z15.62  F800
G1  X140.88  Z15.68  F800
G1  X141.38  Z15.74  F800
G1  X141.88  Z15.80  F800
G1  X142.38  Z15.85  F800
G1  X142.88  Z15.90  F800
G1  X143.38  Z15.95  F800
G1  X143.88  Z15.99  F800
G1  X144.38  Z16.03  F800
G1  X144.88  Z16.06  F800
G1  X145.38  Z16.09  F800
G1  X145.88  Z16.12  F800
G1  X146.38  Z16.14  F800
G1  X146.88  Z16.16  F800
G1  X147.38  Z16.18  F800
G1  X147.88  Z16.19  F800
G1  X148.38  Z16.19  F800
G1  X148.88  Z16.20  F800
G1  X175.88  Z16.20  F800
G1  Y945.00  F500
; ---- stripe Y=945.00 ----
G0  X175.88  Y945.00
G1  Y945.00  F2000
G1  X175.88  Z16.20  F800
G1  X148.88  Z16.20  F800
G1  X148.38  Z16.19  F800
G1  X147.88  Z16.19  F800
G1  X147.38  Z16.18  F800
G1  X146.88  Z16.16  F800
G1  X146.38  Z16.14  F800
G1  X145.88  Z16.12  F800
G1  X145.38  Z16.09  F800
G1  X144.88  Z16.06  F800
G1  X144.38  Z16.03  F800
G1  X143.88  Z15.99  F800
G1  X143.38  Z15.95  F800
G1  X142.88  Z15.90  F800
G1  X142.38  Z15.85  F800
G1  X141.88  Z15.80  F800
G1  X141.38  Z15.74  F800
G1  X140.88  Z15.68  F800
G1  X140.38  Z15.62  F800
G1  X139.88  Z15.55  F800
G1  X139.38  Z15.47  F800
G1  X138.88  Z15.40  F800
G1  X138.38  Z15.32  F800
G1  X137.88  Z15.23  F800
G1  X137.38  Z15.14  F800
G1  X136.88  Z15.05  F800
G1  X136.38  Z14.95  F800
G1  X135.88  Z14.85  F800
G1  X135.38  Z14.75  F800
G1  X134.88  Z14.64  F800
G1  X134.38  Z14.52  F800
G1  X133.88  Z14.41  F800
G1  X133.38  Z14.28  F800
G1  X132.88  Z14.16  F800
G1  X132.38  Z14.03  F800
G1  X131.88  Z13.89  F800
G1  X131.38  Z13.75  F800
G1  X130.88  Z13.61  F800
G1  X130.38  Z13.46  F800
G1  X129.88  Z13.31  F800
G1  X129.38  Z13.16  F800
G1  X128.88  Z13.00  F800
G1  X128.38  Z12.83  F800
G1  X127.88  Z12.66  F800
G1  X127.38  Z12.49  F800
G1  X126.88  Z12.31  F800
G1  X126.38  Z12.13  F800
G1  X125.88  Z11.94  F800
G1  X125.38  Z11.75  F800
G1  X124.88  Z11.55  F800
G1  X124.38  Z11.35  F800
G1  X123.88  Z11.14  F800
G1  X123.38  Z10.93  F800
G1  X122.88  Z10.71  F800
G1  X122.38  Z10.49  F800
G1  X121.88  Z10.27  F800
G1  X121.38  Z10.04  F800
G1  X120.88  Z9.80  F800
G1  X120.38  Z9.56  F800
G1  X119.88  Z9.31  F800
G1  X119.38  Z9.06  F800
G1  X118.88  Z8.80  F800
G1  X118.38  Z8.54  F800
G1  X117.88  Z8.27  F800
G1  X117.38  Z8.10  F800
G1  X80.88  Z8.10  F800
G1  X80.38  Z8.27  F800
G1  X79.88  Z8.54  F800
G1  X79.38  Z8.80  F800
G1  X78.88  Z9.06  F800
G1  X78.38  Z9.31  F800
G1  X77.88  Z9.56  F800
G1  X77.38  Z9.80  F800
G1  X76.88  Z10.04  F800
G1  X76.38  Z10.27  F800
G1  X75.88  Z10.49  F800
G1  X75.38  Z10.71  F800
G1  X74.88  Z10.93  F800
G1  X74.38  Z11.14  F800
G1  X73.88  Z11.35  F800
G1  X73.38  Z11.55  F800
G1  X72.88  Z11.75  F800
G1  X72.38  Z11.94  F800
G1  X71.88  Z12.13  F800
G1  X71.38  Z12.31  F800
G1  X70.88  Z12.49  F800
G1  X70.38  Z12.66  F800
G1  X69.88  Z12.83  F800
G1  X69.38  Z13.00  F800
G1  X68.88  Z13.16  F800
G1  X68.38  Z13.31  F800
G1  X67.88  Z13.46  F800
G1  X67.38  Z13.61  F800
G1  X66.88  Z13.75  F800
G1  X66.38  Z13.89  F800
G1  X65.88  Z14.03  F800
G1  X65.38  Z14.16  F800
G1  X64.88  Z14.28  F800
G1  X64.38  Z14.41  F800
G1  X63.88  Z14.52  F800
G1  X63.38  Z14.64  F800
G1  X62.88  Z14.75  F800
G1  X62.38  Z14.85  F800
G1  X61.88  Z14.95  F800
G1  X61.38  Z15.05  F800
G1  X60.88  Z15.14  F800
G1  X60.38  Z15.23  F800
G1  X59.88  Z15.32  F800
G1  X59.38  Z15.40  F800
G1  X58.88  Z15.47  F800
G1  X58.38  Z15.55  F800
G1  X57.88  Z15.62  F800
G1  X57.38  Z15.68  F800
G1  X56.88  Z15.74  F800
G1  X56.38  Z15.80  F800
G1  X55.88  Z15.85  F800
G1  X55.38  Z15.90  F800
G1  X54.88  Z15.95  F800
G1  X54.38  Z15.99  F800
G1  X53.88  Z16.03  F800
G1  X53.38  Z16.06  F800
G1  X52.88  Z16.09  F800
G1  X52.38  Z16.12  F800
G1  X51.88  Z16.14  F800
G1  X51.38  Z16.16  F800
G1  X50.88  Z16.18  F800
G1  X50.38  Z16.19  F800
G1  X49.88  Z16.19  F800
G1  X49.38  Z16.20  F800
G1  X48.88  Z16.20  F800
G1  X22.38  Z16.20  F800
G1  Y940.00  F500
; ---- stripe Y=940.00 ----
G0  X22.38  Y940.00
G1  Y940.00  F2000
G1  X22.38  Z16.20  F800
G1  X48.88  Z16.20  F800
G1  X49.38  Z16.20  F800
G1  X49.88  Z16.19  F800
G1  X50.38  Z16.19  F800
G1  X50.88  Z16.18  F800
G1  X51.38  Z16.16  F800
G1  X51.88  Z16.14  F800
G1  X52.38  Z16.12  F800
G1  X52.88  Z16.09  F800
G1  X53.38  Z16.06  F800
G1  X53.88  Z16.03  F800
G1  X54.38  Z15.99  F800
G1  X54.88  Z15.95  F800
G1  X55.38  Z15.90  F800
G1  X55.88  Z15.85  F800
G1  X56.38  Z15.80  F800
G1  X56.88  Z15.74  F800
G1  X57.38  Z15.68  F800
G1  X57.88  Z15.62  F800
G1  X58.38  Z15.55  F800
G1  X58.88  Z15.47  F800
G1  X59.38  Z15.40  F800
G1  X59.88  Z15.32  F800
G1  X60.38  Z15.23  F800
G1  X60.88  Z15.14  F800
G1  X61.38  Z15.05  F800
G1  X61.88  Z14.95  F800
G1  X62.38  Z14.85  F800
G1  X62.88  Z14.75  F800
G1  X63.38  Z14.64  F800
G1  X63.88  Z14.52  F800
G1  X64.38  Z14.41  F800
G1  X64.88  Z14.28  F800
G1  X65.38  Z14.16  F800
G1  X65.88  Z14.03  F800
G1  X66.38  Z13.89  F800
G1  X66.88  Z13.75  F800
G1  X67.38  Z13.61  F800
G1  X67.88  Z13.46  F800
G1  X68.38  Z13.31  F800
G1  X68.88  Z13.16  F800
G1  X69.38  Z13.00  F800
G1  X69.88  Z12.83  F800
G1  X70.38  Z12.66  F800
G1  X70.88  Z12.49  F800
G1  X71.38  Z12.31  F800
G1  X71.88  Z12.13  F800
G1  X72.38  Z11.94  F800
G1  X72.88  Z11.75  F800
G1  X73.38  Z11.55  F800
G1  X73.88  Z11.35  F800
G1  X74.38  Z11.14  F800
G1  X74.88  Z10.93  F800
G1  X75.38  Z10.71  F800
G1  X75.88  Z10.49  F800
G1  X76.38  Z10.27  F800
G1  X76.88  Z10.04  F800
G1  X77.38  Z9.80  F800
G1  X77.88  Z9.56  F800
G1  X78.38  Z9.31  F800
G1  X78.88  Z9.06  F800
G1  X79.38  Z8.80  F800
G1  X79.88  Z8.54  F800
G1  X80.38  Z8.27  F800
G1  X80.88  Z8.10  F800
G1  X117.38  Z8.10  F800
G1  X117.88  Z8.27  F800
G1  X118.38  Z8.54  F800
G1  X118.88  Z8.80  F800
G1  X119.38  Z9.06  F800
G1  X119.88  Z9.31  F800
G1  X120.38  Z9.56  F800
G1  X120.88  Z9.80  F800
G1  X121.38  Z10.04  F800
G1  X121.88  Z10.27  F800
G1  X122.38  Z10.49  F800
G1  X122.88  Z10.71  F800
G1  X123.38  Z10.93  F800
G1  X123.88  Z11.14  F800
G1  X124.38  Z11.35  F800
G1  X124.88  Z11.55  F800
G1  X125.38  Z11.75  F800
G1  X125.88  Z11.94  F800
G1  X126.38  Z12.13  F800
G1  X126.88  Z12.31  F800
G1  X127.38  Z12.49  F800
G1  X127.88  Z12.66  F800
G1  X128.38  Z12.83  F800
G1  X128.88  Z13.00  F800
G1  X129.38  Z13.16  F800
G1  X129.88  Z13.31  F800
G1  X130.38  Z13.46  F800
G1  X130.88  Z13.61  F800
G1  X131.38  Z13.75  F800
G1  X131.88  Z13.89  F800
G1  X132.38  Z14.03  F800
G1  X132.88  Z14.16  F800
G1  X133.38  Z14.28  F800
G1  X133.88  Z14.41  F800
G1  X134.38  Z14.52  F800
G1  X134.88  Z14.64  F800
G1  X135.38  Z14.75  F800
G1  X135.88  Z14.85  F800
G1  X136.38  Z14.95  F800
G1  X136.88  Z15.05  F800
G1  X137.38  Z15.14  F800
G1  X137.88  Z15.23  F800
G1  X138.38  Z15.32  F800
G1  X138.88  Z15.40  F800
G1  X139.38  Z15.47  F800
G1  X139.88  Z15.55  F800
G1  X140.38  Z15.62  F800
G1  X140.88  Z15.68  F800
G1  X141.38  Z15.74  F800
G1  X141.88  Z15.80  F800
G1  X142.38  Z15.85  F800
G1  X142.88  Z15.90  F800
G1  X143.38  Z15.95  F800
G1  X143.88  Z15.99  F800
G1  X144.38  Z16.03  F800
G1  X144.88  Z16.06  F800
G1  X145.38  Z16.09  F800
G1  X145.88  Z16.12  F800
G1  X146.38  Z16.14  F800
G1  X146.88  Z16.16  F800
G1  X147.38  Z16.18  F800
G1  X147.88  Z16.19  F800
G1  X148.38  Z16.19  F800
G1  X148.88  Z16.20  F800
G1  X175.88  Z16.20  F800
G1  Y935.00  F500
; ---- stripe Y=935.00 ----
G0  X175.88  Y935.00
G1  Y935.00  F2000
G1  X175.88  Z16.20  F800
G1  X148.88  Z16.20  F800
G1  X148.38  Z16.19  F800
G1  X147.88  Z16.19  F800
G1  X147.38  Z16.18  F800
G1  X146.88  Z16.16  F800
G1  X146.38  Z16.14  F800
G1  X145.88  Z16.12  F800
G1  X145.38  Z16.09  F800
G1  X144.88  Z16.06  F800
G1  X144.38  Z16.03  F800
G1  X143.88  Z15.99  F800
G1  X143.38  Z15.95  F800
G1  X142.88  Z15.90  F800
G1  X142.38  Z15.85  F800
G1  X141.88  Z15.80  F800
G1  X141.38  Z15.74  F800
G1  X140.88  Z15.68  F800
G1  X140.38  Z15.62  F800
G1  X139.88  Z15.55  F800
G1  X139.38  Z15.47  F800
G1  X138.88  Z15.40  F800
G1  X138.38  Z15.32  F800
G1  X137.88  Z15.23  F800
G1  X137.38  Z15.14  F800
G1  X136.88  Z15.05  F800
G1  X136.38  Z14.95  F800
G1  X135.88  Z14.85  F800
G1  X135.38  Z14.75  F800
G1  X134.88  Z14.64  F800
G1  X134.38  Z14.52  F800
G1  X133.88  Z14.41  F800
G1  X133.38  Z14.28  F800
G1  X132.88  Z14.16  F800
G1  X132.38  Z14.03  F800
G1  X131.88  Z13.89  F800
G1  X131.38  Z13.75  F800
G1  X130.88  Z13.61  F800
G1  X130.38  Z13.46  F800
G1  X129.88  Z13.31  F800
G1  X129.38  Z13.16  F800
G1  X128.88  Z13.00  F800
G1  X128.38  Z12.83  F800
G1  X127.88  Z12.66  F800
G1  X127.38  Z12.49  F800
G1  X126.88  Z12.31  F800
G1  X126.38  Z12.13  F800
G1  X125.88  Z11.94  F800
G1  X125.38  Z11.75  F800
G1  X124.88  Z11.55  F800
G1  X124.38  Z11.35  F800
G1  X123.88  Z11.14  F800
G1  X123.38  Z10.93  F800
G1  X122.88  Z10.71  F800
G1  X122.38  Z10.49  F800
G1  X121.88  Z10.27  F800
G1  X121.38  Z10.04  F800
G1  X120.88  Z9.80  F800
G1  X120.38  Z9.56  F800
G1  X119.88  Z9.31  F800
G1  X119.38  Z9.06  F800
G1  X118.88  Z8.80  F800
G1  X118.38  Z8.54  F800
G1  X117.88  Z8.27  F800
G1  X117.38  Z8.10  F800
G1  X80.88  Z8.10  F800
G1  X80.38  Z8.27  F800
G1  X79.88  Z8.54  F800
G1  X79.38  Z8.80  F800
G1  X78.88  Z9.06  F800
G1  X78.38  Z9.31  F800
G1  X77.88  Z9.56  F800
G1  X77.38  Z9.80  F800
G1  X76.88  Z10.04  F800
G1  X76.38  Z10.27  F800
G1  X75.88  Z10.49  F800
G1  X75.38  Z10.71  F800
G1  X74.88  Z10.93  F800
G1  X74.38  Z11.14  F800
G1  X73.88  Z11.35  F800
G1  X73.38  Z11.55  F800
G1  X72.88  Z11.75  F800
G1  X72.38  Z11.94  F800
G1  X71.88  Z12.13  F800
G1  X71.38  Z12.31  F800
G1  X70.88  Z12.49  F800
G1  X70.38  Z12.66  F800
G1  X69.88  Z12.83  F800
G1  X69.38  Z13.00  F800
G1  X68.88  Z13.16  F800
G1  X68.38  Z13.31  F800
G1  X67.88  Z13.46  F800
G1  X67.38  Z13.61  F800
G1  X66.88  Z13.75  F800
G1  X66.38  Z13.89  F800
G1  X65.88  Z14.03  F800
G1  X65.38  Z14.16  F800
G1  X64.88  Z14.28  F800
G1  X64.38  Z14.41  F800
G1  X63.88  Z14.52  F800
G1  X63.38  Z14.64  F800
G1  X62.88  Z14.75  F800
G1  X62.38  Z14.85  F800
G1  X61.88  Z14.95  F800
G1  X61.38  Z15.05  F800
G1  X60.88  Z15.14  F800
G1  X60.38  Z15.23  F800
G1  X59.88  Z15.32  F800
G1  X59.38  Z15.40  F800
G1  X58.88  Z15.47  F800
G1  X58.38  Z15.55  F800
G1  X57.88  Z15.62  F800
G1  X57.38  Z15.68  F800
G1  X56.88  Z15.74  F800
G1  X56.38  Z15.80  F800
G1  X55.88  Z15.85  F800
G1  X55.38  Z15.90  F800
G1  X54.88  Z15.95  F800
G1  X54.38  Z15.99  F800
G1  X53.88  Z16.03  F800
G1  X53.38  Z16.06  F800
G1  X52.88  Z16.09  F800
G1  X52.38  Z16.12  F800
G1  X51.88  Z16.14  F800
G1  X51.38  Z16.16  F800
G1  X50.88  Z16.18  F800
G1  X50.38  Z16.19  F800
G1  X49.88  Z16.19  F800
G1  X49.38  Z16.20  F800
G1  X48.88  Z16.20  F800
G1  X22.38  Z16.20  F800
G1  Y930.00  F500
; ---- stripe Y=930.00 ----
G0  X22.38  Y930.00
G1  Y930.00  F2000
G1  X22.38  Z16.20  F800
G1  X48.88  Z16.20  F800
G1  X49.38  Z16.20  F800
G1  X49.88  Z16.19  F800
G1  X50.38  Z16.19  F800
G1  X50.88  Z16.18  F800
G1  X51.38  Z16.16  F800
G1  X51.88  Z16.14  F800
G1  X52.38  Z16.12  F800
G1  X52.88  Z16.09  F800
G1  X53.38  Z16.06  F800
G1  X53.88  Z16.03  F800
G1  X54.38  Z15.99  F800
G1  X54.88  Z15.95  F800
G1  X55.38  Z15.90  F800
G1  X55.88  Z15.85  F800
G1  X56.38  Z15.80  F800
G1  X56.88  Z15.74  F800
G1  X57.38  Z15.68  F800
G1  X57.88  Z15.62  F800
G1  X58.38  Z15.55  F800
G1  X58.88  Z15.47  F800
G1  X59.38  Z15.40  F800
G1  X59.88  Z15.32  F800
G1  X60.38  Z15.23  F800
G1  X60.88  Z15.14  F800
G1  X61.38  Z15.05  F800
G1  X61.88  Z14.95  F800
G1  X62.38  Z14.85  F800
G1  X62.88  Z14.75  F800
G1  X63.38  Z14.64  F800
G1  X63.88  Z14.52  F800
G1  X64.38  Z14.41  F800
G1  X64.88  Z14.28  F800
G1  X65.38  Z14.16  F800
G1  X65.88  Z14.03  F800
G1  X66.38  Z13.89  F800
G1  X66.88  Z13.75  F800
G1  X67.38  Z13.61  F800
G1  X67.88  Z13.46  F800
G1  X68.38  Z13.31  F800
G1  X68.88  Z13.16  F800
G1  X69.38  Z13.00  F800
G1  X69.88  Z12.83  F800
G1  X70.38  Z12.66  F800
G1  X70.88  Z12.49  F800
G1  X71.38  Z12.31  F800
G1  X71.88  Z12.13  F800
G1  X72.38  Z11.94  F800
G1  X72.88  Z11.75  F800
G1  X73.38  Z11.55  F800
G1  X73.88  Z11.35  F800
G1  X74.38  Z11.14  F800
G1  X74.88  Z10.93  F800
G1  X75.38  Z10.71  F800
G1  X75.88  Z10.49  F800
G1  X76.38  Z10.27  F800
G1  X76.88  Z10.04  F800
G1  X77.38  Z9.80  F800
G1  X77.88  Z9.56  F800
G1  X78.38  Z9.31  F800
G1  X78.88  Z9.06  F800
G1  X79.38  Z8.80  F800
G1  X79.88  Z8.54  F800
G1  X80.38  Z8.27  F800
G1  X80.88  Z8.10  F800
G1  X117.38  Z8.10  F800
G1  X117.88  Z8.27  F800
G1  X118.38  Z8.54  F800
G1  X118.88  Z8.80  F800
G1  X119.38  Z9.06  F800
G1  X119.88  Z9.31  F800
G1  X120.38  Z9.56  F800
G1  X120.88  Z9.80  F800
G1  X121.38  Z10.04  F800
G1  X121.88  Z10.27  F800
G1  X122.38  Z10.49  F800
G1  X122.88  Z10.71  F800
G1  X123.38  Z10.93  F800
G1  X123.88  Z11.14  F800
G1  X124.38  Z11.35  F800
G1  X124.88  Z11.55  F800
G1  X125.38  Z11.75  F800
G1  X125.88  Z11.94  F800
G1  X126.38  Z12.13  F800
G1  X126.88  Z12.31  F800
G1  X127.38  Z12.49  F800
G1  X127.88  Z12.66  F800
G1  X128.38  Z12.83  F800
G1  X128.88  Z13.00  F800
G1  X129.38  Z13.16  F800
G1  X129.88  Z13.31  F800
G1  X130.38  Z13.46  F800
G1  X130.88  Z13.61  F800
G1  X131.38  Z13.75  F800
G1  X131.88  Z13.89  F800
G1  X132.38  Z14.03  F800
G1  X132.88  Z14.16  F800
G1  X133.38  Z14.28  F800
G1  X133.88  Z14.41  F800
G1  X134.38  Z14.52  F800
G1  X134.88  Z14.64  F800
G1  X135.38  Z14.75  F800
G1  X135.88  Z14.85  F800
G1  X136.38  Z14.95  F800
G1  X136.88  Z15.05  F800
G1  X137.38  Z15.14  F800
G1  X137.88  Z15.23  F800
G1  X138.38  Z15.32  F800
G1  X138.88  Z15.40  F800
G1  X139.38  Z15.47  F800
G1  X139.88  Z15.55  F800
G1  X140.38  Z15.62  F800
G1  X140.88  Z15.68  F800
G1  X141.38  Z15.74  F800
G1  X141.88  Z15.80  F800
G1  X142.38  Z15.85  F800
G1  X142.88  Z15.90  F800
G1  X143.38  Z15.95  F800
G1  X143.88  Z15.99  F800
G1  X144.38  Z16.03  F800
G1  X144.88  Z16.06  F800
G1  X145.38  Z16.09  F800
G1  X145.88  Z16.12  F800
G1  X146.38  Z16.14  F800
G1  X146.88  Z16.16  F800
G1  X147.38  Z16.18  F800
G1  X147.88  Z16.19  F800
G1  X148.38  Z16.19  F800
G1  X148.88  Z16.20  F800
G1  X175.88  Z16.20  F800
G1  Y925.00  F500
; ---- stripe Y=925.00 ----
G0  X175.88  Y925.00
G1  Y925.00  F2000
G1  X175.88  Z16.20  F800
G1  X148.88  Z16.20  F800
G1  X148.38  Z16.19  F800
G1  X147.88  Z16.19  F800
G1  X147.38  Z16.18  F800
G1  X146.88  Z16.16  F800
G1  X146.38  Z16.14  F800
G1  X145.88  Z16.12  F800
G1  X145.38  Z16.09  F800
G1  X144.88  Z16.06  F800
G1  X144.38  Z16.03  F800
G1  X143.88  Z15.99  F800
G1  X143.38  Z15.95  F800
G1  X142.88  Z15.90  F800
G1  X142.38  Z15.85  F800
G1  X141.88  Z15.80  F800
G1  X141.38  Z15.74  F800
G1  X140.88  Z15.68  F800
G1  X140.38  Z15.62  F800
G1  X139.88  Z15.55  F800
G1  X139.38  Z15.47  F800
G1  X138.88  Z15.40  F800
G1  X138.38  Z15.32  F800
G1  X137.88  Z15.23  F800
G1  X137.38  Z15.14  F800
G1  X136.88  Z15.05  F800
G1  X136.38  Z14.95  F800
G1  X135.88  Z14.85  F800
G1  X135.38  Z14.75  F800
G1  X134.88  Z14.64  F800
G1  X134.38  Z14.52  F800
G1  X133.88  Z14.41  F800
G1  X133.38  Z14.28  F800
G1  X132.88  Z14.16  F800
G1  X132.38  Z14.03  F800
G1  X131.88  Z13.89  F800
G1  X131.38  Z13.75  F800
G1  X130.88  Z13.61  F800
G1  X130.38  Z13.46  F800
G1  X129.88  Z13.31  F800
G1  X129.38  Z13.16  F800
G1  X128.88  Z13.00  F800
G1  X128.38  Z12.83  F800
G1  X127.88  Z12.66  F800
G1  X127.38  Z12.49  F800
G1  X126.88  Z12.31  F800
G1  X126.38  Z12.13  F800
G1  X125.88  Z11.94  F800
G1  X125.38  Z11.75  F800
G1  X124.88  Z11.55  F800
G1  X124.38  Z11.35  F800
G1  X123.88  Z11.14  F800
G1  X123.38  Z10.93  F800
G1  X122.88  Z10.71  F800
G1  X122.38  Z10.49  F800
G1  X121.88  Z10.27  F800
G1  X121.38  Z10.04  F800
G1  X120.88  Z9.80  F800
G1  X120.38  Z9.56  F800
G1  X119.88  Z9.31  F800
G1  X119.38  Z9.06  F800
G1  X118.88  Z8.80  F800
G1  X118.38  Z8.54  F800
G1  X117.88  Z8.27  F800
G1  X117.38  Z8.10  F800
G1  X80.88  Z8.10  F800
G1  X80.38  Z8.27  F800
G1  X79.88  Z8.54  F800
G1  X79.38  Z8.80  F800
G1  X78.88  Z9.06  F800
G1  X78.38  Z9.31  F800
G1  X77.88  Z9.56  F800
G1  X77.38  Z9.80  F800
G1  X76.88  Z10.04  F800
G1  X76.38  Z10.27  F800
G1  X75.88  Z10.49  F800
G1  X75.38  Z10.71  F800
G1  X74.88  Z10.93  F800
G1  X74.38  Z11.14  F800
G1  X73.88  Z11.35  F800
G1  X73.38  Z11.55  F800
G1  X72.88  Z11.75  F800
G1  X72.38  Z11.94  F800
G1  X71.88  Z12.13  F800
G1  X71.38  Z12.31  F800
G1  X70.88  Z12.49  F800
G1  X70.38  Z12.66  F800
G1  X69.88  Z12.83  F800
G1  X69.38  Z13.00  F800
G1  X68.88  Z13.16  F800
G1  X68.38  Z13.31  F800
G1  X67.88  Z13.46  F800
G1  X67.38  Z13.61  F800
G1  X66.88  Z13.75  F800
G1  X66.38  Z13.89  F800
G1  X65.88  Z14.03  F800
G1  X65.38  Z14.16  F800
G1  X64.88  Z14.28  F800
G1  X64.38  Z14.41  F800
G1  X63.88  Z14.52  F800
G1  X63.38  Z14.64  F800
G1  X62.88  Z14.75  F800
G1  X62.38  Z14.85  F800
G1  X61.88  Z14.95  F800
G1  X61.38  Z15.05  F800
G1  X60.88  Z15.14  F800
G1  X60.38  Z15.23  F800
G1  X59.88  Z15.32  F800
G1  X59.38  Z15.40  F800
G1  X58.88  Z15.47  F800
G1  X58.38  Z15.55  F800
G1  X57.88  Z15.62  F800
G1  X57.38  Z15.68  F800
G1  X56.88  Z15.74  F800
G1  X56.38  Z15.80  F800
G1  X55.88  Z15.85  F800
G1  X55.38  Z15.90  F800
G1  X54.88  Z15.95  F800
G1  X54.38  Z15.99  F800
G1  X53.88  Z16.03  F800
G1  X53.38  Z16.06  F800
G1  X52.88  Z16.09  F800
G1  X52.38  Z16.12  F800
G1  X51.88  Z16.14  F800
G1  X51.38  Z16.16  F800
G1  X50.88  Z16.18  F800
G1  X50.38  Z16.19  F800
G1  X49.88  Z16.19  F800
G1  X49.38  Z16.20  F800
G1  X48.88  Z16.20  F800
G1  X22.38  Z16.20  F800
G1  Y920.00  F500
; ---- stripe Y=920.00 ----
G0  X22.38  Y920.00
G1  Y920.00  F2000
G1  X22.38  Z16.20  F800
G1  X48.88  Z16.20  F800
G1  X49.38  Z16.20  F800
G1  X49.88  Z16.19  F800
G1  X50.38  Z16.19  F800
G1  X50.88  Z16.18  F800
G1  X51.38  Z16.16  F800
G1  X51.88  Z16.14  F800
G1  X52.38  Z16.12  F800
G1  X52.88  Z16.09  F800
G1  X53.38  Z16.06  F800
G1  X53.88  Z16.03  F800
G1  X54.38  Z15.99  F800
G1  X54.88  Z15.95  F800
G1  X55.38  Z15.90  F800
G1  X55.88  Z15.85  F800
G1  X56.38  Z15.80  F800
G1  X56.88  Z15.74  F800
G1  X57.38  Z15.68  F800
G1  X57.88  Z15.62  F800
G1  X58.38  Z15.55  F800
G1  X58.88  Z15.47  F800
G1  X59.38  Z15.40  F800
G1  X59.88  Z15.32  F800
G1  X60.38  Z15.23  F800
G1  X60.88  Z15.14  F800
G1  X61.38  Z15.05  F800
G1  X61.88  Z14.95  F800
G1  X62.38  Z14.85  F800
G1  X62.88  Z14.75  F800
G1  X63.38  Z14.64  F800
G1  X63.88  Z14.52  F800
G1  X64.38  Z14.41  F800
G1  X64.88  Z14.28  F800
G1  X65.38  Z14.16  F800
G1  X65.88  Z14.03  F800
G1  X66.38  Z13.89  F800
G1  X66.88  Z13.75  F800
G1  X67.38  Z13.61  F800
G1  X67.88  Z13.46  F800
G1  X68.38  Z13.31  F800
G1  X68.88  Z13.16  F800
G1  X69.38  Z13.00  F800
G1  X69.88  Z12.83  F800
G1  X70.38  Z12.66  F800
G1  X70.88  Z12.49  F800
G1  X71.38  Z12.31  F800
G1  X71.88  Z12.13  F800
G1  X72.38  Z11.94  F800
G1  X72.88  Z11.75  F800
G1  X73.38  Z11.55  F800
G1  X73.88  Z11.35  F800
G1  X74.38  Z11.14  F800
G1  X74.88  Z10.93  F800
G1  X75.38  Z10.71  F800
G1  X75.88  Z10.49  F800
G1  X76.38  Z10.27  F800
G1  X76.88  Z10.04  F800
G1  X77.38  Z9.80  F800
G1  X77.88  Z9.56  F800
G1  X78.38  Z9.31  F800
G1  X78.88  Z9.06  F800
G1  X79.38  Z8.80  F800
G1  X79.88  Z8.54  F800
G1  X80.38  Z8.27  F800
G1  X80.88  Z8.10  F800
G1  X117.38  Z8.10  F800
G1  X117.88  Z8.27  F800
G1  X118.38  Z8.54  F800
G1  X118.88  Z8.80  F800
G1  X119.38  Z9.06  F800
G1  X119.88  Z9.31  F800
G1  X120.38  Z9.56  F800
G1  X120.88  Z9.80  F800
G1  X121.38  Z10.04  F800
G1  X121.88  Z10.27  F800
G1  X122.38  Z10.49  F800
G1  X122.88  Z10.71  F800
G1  X123.38  Z10.93  F800
G1  X123.88  Z11.14  F800
G1  X124.38  Z11.35  F800
G1  X124.88  Z11.55  F800
G1  X125.38  Z11.75  F800
G1  X125.88  Z11.94  F800
G1  X126.38  Z12.13  F800
G1  X126.88  Z12.31  F800
G1  X127.38  Z12.49  F800
G1  X127.88  Z12.66  F800
G1  X128.38  Z12.83  F800
G1  X128.88  Z13.00  F800
G1  X129.38  Z13.16  F800
G1  X129.88  Z13.31  F800
G1  X130.38  Z13.46  F800
G1  X130.88  Z13.61  F800
G1  X131.38  Z13.75  F800
G1  X131.88  Z13.89  F800
G1  X132.38  Z14.03  F800
G1  X132.88  Z14.16  F800
G1  X133.38  Z14.28  F800
G1  X133.88  Z14.41  F800
G1  X134.38  Z14.52  F800
G1  X134.88  Z14.64  F800
G1  X135.38  Z14.75  F800
G1  X135.88  Z14.85  F800
G1  X136.38  Z14.95  F800
G1  X136.88  Z15.05  F800
G1  X137.38  Z15.14  F800
G1  X137.88  Z15.23  F800
G1  X138.38  Z15.32  F800
G1  X138.88  Z15.40  F800
G1  X139.38  Z15.47  F800
G1  X139.88  Z15.55  F800
G1  X140.38  Z15.62  F800
G1  X140.88  Z15.68  F800
G1  X141.38  Z15.74  F800
G1  X141.88  Z15.80  F800
G1  X142.38  Z15.85  F800
G1  X142.88  Z15.90  F800
G1  X143.38  Z15.95  F800
G1  X143.88  Z15.99  F800
G1  X144.38  Z16.03  F800
G1  X144.88  Z16.06  F800
G1  X145.38  Z16.09  F800
G1  X145.88  Z16.12  F800
G1  X146.38  Z16.14  F800
G1  X146.88  Z16.16  F800
G1  X147.38  Z16.18  F800
G1  X147.88  Z16.19  F800
G1  X148.38  Z16.19  F800
G1  X148.88  Z16.20  F800
G1  X175.88  Z16.20  F800
G1  Y915.00  F500
; ---- stripe Y=915.00 ----
G0  X175.88  Y915.00
G1  Y915.00  F2000
G1  X175.88  Z16.20  F800
G1  X148.88  Z16.20  F800
G1  X148.38  Z16.19  F800
G1  X147.88  Z16.19  F800
G1  X147.38  Z16.18  F800
G1  X146.88  Z16.16  F800
G1  X146.38  Z16.14  F800
G1  X145.88  Z16.12  F800
G1  X145.38  Z16.09  F800
G1  X144.88  Z16.06  F800
G1  X144.38  Z16.03  F800
G1  X143.88  Z15.99  F800
G1  X143.38  Z15.95  F800
G1  X142.88  Z15.90  F800
G1  X142.38  Z15.85  F800
G1  X141.88  Z15.80  F800
G1  X141.38  Z15.74  F800
G1  X140.88  Z15.68  F800
G1  X140.38  Z15.62  F800
G1  X139.88  Z15.55  F800
G1  X139.38  Z15.47  F800
G1  X138.88  Z15.40  F800
G1  X138.38  Z15.32  F800
G1  X137.88  Z15.23  F800
G1  X137.38  Z15.14  F800
G1  X136.88  Z15.05  F800
G1  X136.38  Z14.95  F800
G1  X135.88  Z14.85  F800
G1  X135.38  Z14.75  F800
G1  X134.88  Z14.64  F800
G1  X134.38  Z14.52  F800
G1  X133.88  Z14.41  F800
G1  X133.38  Z14.28  F800
G1  X132.88  Z14.16  F800
G1  X132.38  Z14.03  F800
G1  X131.88  Z13.89  F800
G1  X131.38  Z13.75  F800
G1  X130.88  Z13.61  F800
G1  X130.38  Z13.46  F800
G1  X129.88  Z13.31  F800
G1  X129.38  Z13.16  F800
G1  X128.88  Z13.00  F800
G1  X128.38  Z12.83  F800
G1  X127.88  Z12.66  F800
G1  X127.38  Z12.49  F800
G1  X126.88  Z12.31  F800
G1  X126.38  Z12.13  F800
G1  X125.88  Z11.94  F800
G1  X125.38  Z11.75  F800
G1  X124.88  Z11.55  F800
G1  X124.38  Z11.35  F800
G1  X123.88  Z11.14  F800
G1  X123.38  Z10.93  F800
G1  X122.88  Z10.71  F800
G1  X122.38  Z10.49  F800
G1  X121.88  Z10.27  F800
G1  X121.38  Z10.04  F800
G1  X120.88  Z9.80  F800
G1  X120.38  Z9.56  F800
G1  X119.88  Z9.31  F800
G1  X119.38  Z9.06  F800
G1  X118.88  Z8.80  F800
G1  X118.38  Z8.54  F800
G1  X117.88  Z8.27  F800
G1  X117.38  Z8.10  F800
G1  X80.88  Z8.10  F800
G1  X80.38  Z8.27  F800
G1  X79.88  Z8.54  F800
G1  X79.38  Z8.80  F800
G1  X78.88  Z9.06  F800
G1  X78.38  Z9.31  F800
G1  X77.88  Z9.56  F800
G1  X77.38  Z9.80  F800
G1  X76.88  Z10.04  F800
G1  X76.38  Z10.27  F800
G1  X75.88  Z10.49  F800
G1  X75.38  Z10.71  F800
G1  X74.88  Z10.93  F800
G1  X74.38  Z11.14  F800
G1  X73.88  Z11.35  F800
G1  X73.38  Z11.55  F800
G1  X72.88  Z11.75  F800
G1  X72.38  Z11.94  F800
G1  X71.88  Z12.13  F800
G1  X71.38  Z12.31  F800
G1  X70.88  Z12.49  F800
G1  X70.38  Z12.66  F800
G1  X69.88  Z12.83  F800
G1  X69.38  Z13.00  F800
G1  X68.88  Z13.16  F800
G1  X68.38  Z13.31  F800
G1  X67.88  Z13.46  F800
G1  X67.38  Z13.61  F800
G1  X66.88  Z13.75  F800
G1  X66.38  Z13.89  F800
G1  X65.88  Z14.03  F800
G1  X65.38  Z14.16  F800
G1  X64.88  Z14.28  F800
G1  X64.38  Z14.41  F800
G1  X63.88  Z14.52  F800
G1  X63.38  Z14.64  F800
G1  X62.88  Z14.75  F800
G1  X62.38  Z14.85  F800
G1  X61.88  Z14.95  F800
G1  X61.38  Z15.05  F800
G1  X60.88  Z15.14  F800
G1  X60.38  Z15.23  F800
G1  X59.88  Z15.32  F800
G1  X59.38  Z15.40  F800
G1  X58.88  Z15.47  F800
G1  X58.38  Z15.55  F800
G1  X57.88  Z15.62  F800
G1  X57.38  Z15.68  F800
G1  X56.88  Z15.74  F800
G1  X56.38  Z15.80  F800
G1  X55.88  Z15.85  F800
G1  X55.38  Z15.90  F800
G1  X54.88  Z15.95  F800
G1  X54.38  Z15.99  F800
G1  X53.88  Z16.03  F800
G1  X53.38  Z16.06  F800
G1  X52.88  Z16.09  F800
G1  X52.38  Z16.12  F800
G1  X51.88  Z16.14  F800
G1  X51.38  Z16.16  F800
G1  X50.88  Z16.18  F800
G1  X50.38  Z16.19  F800
G1  X49.88  Z16.19  F800
G1  X49.38  Z16.20  F800
G1  X48.88  Z16.20  F800
G1  X22.38  Z16.20  F800
G1  Y910.00  F500
; ---- stripe Y=910.00 ----
G0  X22.38  Y910.00
G1  Y910.00  F2000
G1  X22.38  Z16.20  F800
G1  X48.88  Z16.20  F800
G1  X49.38  Z16.20  F800
G1  X49.88  Z16.19  F800
G1  X50.38  Z16.19  F800
G1  X50.88  Z16.18  F800
G1  X51.38  Z16.16  F800
G1  X51.88  Z16.14  F800
G1  X52.38  Z16.12  F800
G1  X52.88  Z16.09  F800
G1  X53.38  Z16.06  F800
G1  X53.88  Z16.03  F800
G1  X54.38  Z15.99  F800
G1  X54.88  Z15.95  F800
G1  X55.38  Z15.90  F800
G1  X55.88  Z15.85  F800
G1  X56.38  Z15.80  F800
G1  X56.88  Z15.74  F800
G1  X57.38  Z15.68  F800
G1  X57.88  Z15.62  F800
G1  X58.38  Z15.55  F800
G1  X58.88  Z15.47  F800
G1  X59.38  Z15.40  F800
G1  X59.88  Z15.32  F800
G1  X60.38  Z15.23  F800
G1  X60.88  Z15.14  F800
G1  X61.38  Z15.05  F800
G1  X61.88  Z14.95  F800
G1  X62.38  Z14.85  F800
G1  X62.88  Z14.75  F800
G1  X63.38  Z14.64  F800
G1  X63.88  Z14.52  F800
G1  X64.38  Z14.41  F800
G1  X64.88  Z14.28  F800
G1  X65.38  Z14.16  F800
G1  X65.88  Z14.03  F800
G1  X66.38  Z13.89  F800
G1  X66.88  Z13.75  F800
G1  X67.38  Z13.61  F800
G1  X67.88  Z13.46  F800
G1  X68.38  Z13.31  F800
G1  X68.88  Z13.16  F800
G1  X69.38  Z13.00  F800
G1  X69.88  Z12.83  F800
G1  X70.38  Z12.66  F800
G1  X70.88  Z12.49  F800
G1  X71.38  Z12.31  F800
G1  X71.88  Z12.13  F800
G1  X72.38  Z11.94  F800
G1  X72.88  Z11.75  F800
G1  X73.38  Z11.55  F800
G1  X73.88  Z11.35  F800
G1  X74.38  Z11.14  F800
G1  X74.88  Z10.93  F800
G1  X75.38  Z10.71  F800
G1  X75.88  Z10.49  F800
G1  X76.38  Z10.27  F800
G1  X76.88  Z10.04  F800
G1  X77.38  Z9.80  F800
G1  X77.88  Z9.56  F800
G1  X78.38  Z9.31  F800
G1  X78.88  Z9.06  F800
G1  X79.38  Z8.80  F800
G1  X79.88  Z8.54  F800
G1  X80.38  Z8.27  F800
G1  X80.88  Z8.10  F800
G1  X117.38  Z8.10  F800
G1  X117.88  Z8.27  F800
G1  X118.38  Z8.54  F800
G1  X118.88  Z8.80  F800
G1  X119.38  Z9.06  F800
G1  X119.88  Z9.31  F800
G1  X120.38  Z9.56  F800
G1  X120.88  Z9.80  F800
G1  X121.38  Z10.04  F800
G1  X121.88  Z10.27  F800
G1  X122.38  Z10.49  F800
G1  X122.88  Z10.71  F800
G1  X123.38  Z10.93  F800
G1  X123.88  Z11.14  F800
G1  X124.38  Z11.35  F800
G1  X124.88  Z11.55  F800
G1  X125.38  Z11.75  F800
G1  X125.88  Z11.94  F800
G1  X126.38  Z12.13  F800
G1  X126.88  Z12.31  F800
G1  X127.38  Z12.49  F800
G1  X127.88  Z12.66  F800
G1  X128.38  Z12.83  F800
G1  X128.88  Z13.00  F800
G1  X129.38  Z13.16  F800
G1  X129.88  Z13.31  F800
G1  X130.38  Z13.46  F800
G1  X130.88  Z13.61  F800
G1  X131.38  Z13.75  F800
G1  X131.88  Z13.89  F800
G1  X132.38  Z14.03  F800
G1  X132.88  Z14.16  F800
G1  X133.38  Z14.28  F800
G1  X133.88  Z14.41  F800
G1  X134.38  Z14.52  F800
G1  X134.88  Z14.64  F800
G1  X135.38  Z14.75  F800
G1  X135.88  Z14.85  F800
G1  X136.38  Z14.95  F800
G1  X136.88  Z15.05  F800
G1  X137.38  Z15.14  F800
G1  X137.88  Z15.23  F800
G1  X138.38  Z15.32  F800
G1  X138.88  Z15.40  F800
G1  X139.38  Z15.47  F800
G1  X139.88  Z15.55  F800
G1  X140.38  Z15.62  F800
G1  X140.88  Z15.68  F800
G1  X141.38  Z15.74  F800
G1  X141.88  Z15.80  F800
G1  X142.38  Z15.85  F800
G1  X142.88  Z15.90  F800
G1  X143.38  Z15.95  F800
G1  X143.88  Z15.99  F800
G1  X144.38  Z16.03  F800
G1  X144.88  Z16.06  F800
G1  X145.38  Z16.09  F800
G1  X145.88  Z16.12  F800
G1  X146.38  Z16.14  F800
G1  X146.88  Z16.16  F800
G1  X147.38  Z16.18  F800
G1  X147.88  Z16.19  F800
G1  X148.38  Z16.19  F800
G1  X148.88  Z16.20  F800
G1  X175.88  Z16.20  F800
G1  Y905.00  F500
; ---- stripe Y=905.00 ----
G0  X175.88  Y905.00
G1  Y905.00  F2000
G1  X175.88  Z16.20  F800
G1  X148.88  Z16.20  F800
G1  X148.38  Z16.19  F800
G1  X147.88  Z16.19  F800
G1  X147.38  Z16.18  F800
G1  X146.88  Z16.16  F800
G1  X146.38  Z16.14  F800
G1  X145.88  Z16.12  F800
G1  X145.38  Z16.09  F800
G1  X144.88  Z16.06  F800
G1  X144.38  Z16.03  F800
G1  X143.88  Z15.99  F800
G1  X143.38  Z15.95  F800
G1  X142.88  Z15.90  F800
G1  X142.38  Z15.85  F800
G1  X141.88  Z15.80  F800
G1  X141.38  Z15.74  F800
G1  X140.88  Z15.68  F800
G1  X140.38  Z15.62  F800
G1  X139.88  Z15.55  F800
G1  X139.38  Z15.47  F800
G1  X138.88  Z15.40  F800
G1  X138.38  Z15.32  F800
G1  X137.88  Z15.23  F800
G1  X137.38  Z15.14  F800
G1  X136.88  Z15.05  F800
G1  X136.38  Z14.95  F800
G1  X135.88  Z14.85  F800
G1  X135.38  Z14.75  F800
G1  X134.88  Z14.64  F800
G1  X134.38  Z14.52  F800
G1  X133.88  Z14.41  F800
G1  X133.38  Z14.28  F800
G1  X132.88  Z14.16  F800
G1  X132.38  Z14.03  F800
G1  X131.88  Z13.89  F800
G1  X131.38  Z13.75  F800
G1  X130.88  Z13.61  F800
G1  X130.38  Z13.46  F800
G1  X129.88  Z13.31  F800
G1  X129.38  Z13.16  F800
G1  X128.88  Z13.00  F800
G1  X128.38  Z12.83  F800
G1  X127.88  Z12.66  F800
G1  X127.38  Z12.49  F800
G1  X126.88  Z12.31  F800
G1  X126.38  Z12.13  F800
G1  X125.88  Z11.94  F800
G1  X125.38  Z11.75  F800
G1  X124.88  Z11.55  F800
G1  X124.38  Z11.35  F800
G1  X123.88  Z11.14  F800
G1  X123.38  Z10.93  F800
G1  X122.88  Z10.71  F800
G1  X122.38  Z10.49  F800
G1  X121.88  Z10.27  F800
G1  X121.38  Z10.04  F800
G1  X120.88  Z9.80  F800
G1  X120.38  Z9.56  F800
G1  X119.88  Z9.31  F800
G1  X119.38  Z9.06  F800
G1  X118.88  Z8.80  F800
G1  X118.38  Z8.54  F800
G1  X117.88  Z8.27  F800
G1  X117.38  Z8.10  F800
G1  X80.88  Z8.10  F800
G1  X80.38  Z8.27  F800
G1  X79.88  Z8.54  F800
G1  X79.38  Z8.80  F800
G1  X78.88  Z9.06  F800
G1  X78.38  Z9.31  F800
G1  X77.88  Z9.56  F800
G1  X77.38  Z9.80  F800
G1  X76.88  Z10.04  F800
G1  X76.38  Z10.27  F800
G1  X75.88  Z10.49  F800
G1  X75.38  Z10.71  F800
G1  X74.88  Z10.93  F800
G1  X74.38  Z11.14  F800
G1  X73.88  Z11.35  F800
G1  X73.38  Z11.55  F800
G1  X72.88  Z11.75  F800
G1  X72.38  Z11.94  F800
G1  X71.88  Z12.13  F800
G1  X71.38  Z12.31  F800
G1  X70.88  Z12.49  F800
G1  X70.38  Z12.66  F800
G1  X69.88  Z12.83  F800
G1  X69.38  Z13.00  F800
G1  X68.88  Z13.16  F800
G1  X68.38  Z13.31  F800
G1  X67.88  Z13.46  F800
G1  X67.38  Z13.61  F800
G1  X66.88  Z13.75  F800
G1  X66.38  Z13.89  F800
G1  X65.88  Z14.03  F800
G1  X65.38  Z14.16  F800
G1  X64.88  Z14.28  F800
G1  X64.38  Z14.41  F800
G1  X63.88  Z14.52  F800
G1  X63.38  Z14.64  F800
G1  X62.88  Z14.75  F800
G1  X62.38  Z14.85  F800
G1  X61.88  Z14.95  F800
G1  X61.38  Z15.05  F800
G1  X60.88  Z15.14  F800
G1  X60.38  Z15.23  F800
G1  X59.88  Z15.32  F800
G1  X59.38  Z15.40  F800
G1  X58.88  Z15.47  F800
G1  X58.38  Z15.55  F800
G1  X57.88  Z15.62  F800
G1  X57.38  Z15.68  F800
G1  X56.88  Z15.74  F800
G1  X56.38  Z15.80  F800
G1  X55.88  Z15.85  F800
G1  X55.38  Z15.90  F800
G1  X54.88  Z15.95  F800
G1  X54.38  Z15.99  F800
G1  X53.88  Z16.03  F800
G1  X53.38  Z16.06  F800
G1  X52.88  Z16.09  F800
G1  X52.38  Z16.12  F800
G1  X51.88  Z16.14  F800
G1  X51.38  Z16.16  F800
G1  X50.88  Z16.18  F800
G1  X50.38  Z16.19  F800
G1  X49.88  Z16.19  F800
G1  X49.38  Z16.20  F800
G1  X48.88  Z16.20  F800
G1  X22.38  Z16.20  F800
G1  Y900.00  F500
; ---- stripe Y=900.00 ----
G0  X22.38  Y900.00
G1  Y900.00  F2000
G1  X22.38  Z16.20  F800
G1  X48.88  Z16.20  F800
G1  X49.38  Z16.20  F800
G1  X49.88  Z16.19  F800
G1  X50.38  Z16.19  F800
G1  X50.88  Z16.18  F800
G1  X51.38  Z16.16  F800
G1  X51.88  Z16.14  F800
G1  X52.38  Z16.12  F800
G1  X52.88  Z16.09  F800
G1  X53.38  Z16.06  F800
G1  X53.88  Z16.03  F800
G1  X54.38  Z15.99  F800
G1  X54.88  Z15.95  F800
G1  X55.38  Z15.90  F800
G1  X55.88  Z15.85  F800
G1  X56.38  Z15.80  F800
G1  X56.88  Z15.74  F800
G1  X57.38  Z15.68  F800
G1  X57.88  Z15.62  F800
G1  X58.38  Z15.55  F800
G1  X58.88  Z15.47  F800
G1  X59.38  Z15.40  F800
G1  X59.88  Z15.32  F800
G1  X60.38  Z15.23  F800
G1  X60.88  Z15.14  F800
G1  X61.38  Z15.05  F800
G1  X61.88  Z14.95  F800
G1  X62.38  Z14.85  F800
G1  X62.88  Z14.75  F800
G1  X63.38  Z14.64  F800
G1  X63.88  Z14.52  F800
G1  X64.38  Z14.41  F800
G1  X64.88  Z14.28  F800
G1  X65.38  Z14.16  F800
G1  X65.88  Z14.03  F800
G1  X66.38  Z13.89  F800
G1  X66.88  Z13.75  F800
G1  X67.38  Z13.61  F800
G1  X67.88  Z13.46  F800
G1  X68.38  Z13.31  F800
G1  X68.88  Z13.16  F800
G1  X69.38  Z13.00  F800
G1  X69.88  Z12.83  F800
G1  X70.38  Z12.66  F800
G1  X70.88  Z12.49  F800
G1  X71.38  Z12.31  F800
G1  X71.88  Z12.13  F800
G1  X72.38  Z11.94  F800
G1  X72.88  Z11.75  F800
G1  X73.38  Z11.55  F800
G1  X73.88  Z11.35  F800
G1  X74.38  Z11.14  F800
G1  X74.88  Z10.93  F800
G1  X75.38  Z10.71  F800
G1  X75.88  Z10.49  F800
G1  X76.38  Z10.27  F800
G1  X76.88  Z10.04  F800
G1  X77.38  Z9.80  F800
G1  X77.88  Z9.56  F800
G1  X78.38  Z9.31  F800
G1  X78.88  Z9.06  F800
G1  X79.38  Z8.80  F800
G1  X79.88  Z8.54  F800
G1  X80.38  Z8.27  F800
G1  X80.88  Z8.10  F800
G1  X117.38  Z8.10  F800
G1  X117.88  Z8.27  F800
G1  X118.38  Z8.54  F800
G1  X118.88  Z8.80  F800
G1  X119.38  Z9.06  F800
G1  X119.88  Z9.31  F800
G1  X120.38  Z9.56  F800
G1  X120.88  Z9.80  F800
G1  X121.38  Z10.04  F800
G1  X121.88  Z10.27  F800
G1  X122.38  Z10.49  F800
G1  X122.88  Z10.71  F800
G1  X123.38  Z10.93  F800
G1  X123.88  Z11.14  F800
G1  X124.38  Z11.35  F800
G1  X124.88  Z11.55  F800
G1  X125.38  Z11.75  F800
G1  X125.88  Z11.94  F800
G1  X126.38  Z12.13  F800
G1  X126.88  Z12.31  F800
G1  X127.38  Z12.49  F800
G1  X127.88  Z12.66  F800
G1  X128.38  Z12.83  F800
G1  X128.88  Z13.00  F800
G1  X129.38  Z13.16  F800
G1  X129.88  Z13.31  F800
G1  X130.38  Z13.46  F800
G1  X130.88  Z13.61  F800
G1  X131.38  Z13.75  F800
G1  X131.88  Z13.89  F800
G1  X132.38  Z14.03  F800
G1  X132.88  Z14.16  F800
G1  X133.38  Z14.28  F800
G1  X133.88  Z14.41  F800
G1  X134.38  Z14.52  F800
G1  X134.88  Z14.64  F800
G1  X135.38  Z14.75  F800
G1  X135.88  Z14.85  F800
G1  X136.38  Z14.95  F800
G1  X136.88  Z15.05  F800
G1  X137.38  Z15.14  F800
G1  X137.88  Z15.23  F800
G1  X138.38  Z15.32  F800
G1  X138.88  Z15.40  F800
G1  X139.38  Z15.47  F800
G1  X139.88  Z15.55  F800
G1  X140.38  Z15.62  F800
G1  X140.88  Z15.68  F800
G1  X141.38  Z15.74  F800
G1  X141.88  Z15.80  F800
G1  X142.38  Z15.85  F800
G1  X142.88  Z15.90  F800
G1  X143.38  Z15.95  F800
G1  X143.88  Z15.99  F800
G1  X144.38  Z16.03  F800
G1  X144.88  Z16.06  F800
G1  X145.38  Z16.09  F800
G1  X145.88  Z16.12  F800
G1  X146.38  Z16.14  F800
G1  X146.88  Z16.16  F800
G1  X147.38  Z16.18  F800
G1  X147.88  Z16.19  F800
G1  X148.38  Z16.19  F800
G1  X148.88  Z16.20  F800
G1  X175.88  Z16.20  F800
G1  Y895.00  F500
; ---- stripe Y=895.00 ----
G0  X175.88  Y895.00
G1  Y895.00  F2000
G1  X175.88  Z16.20  F800
G1  X148.88  Z16.20  F800
G1  X148.38  Z16.19  F800
G1  X147.88  Z16.19  F800
G1  X147.38  Z16.18  F800
G1  X146.88  Z16.16  F800
G1  X146.38  Z16.14  F800
G1  X145.88  Z16.12  F800
G1  X145.38  Z16.09  F800
G1  X144.88  Z16.06  F800
G1  X144.38  Z16.03  F800
G1  X143.88  Z15.99  F800
G1  X143.38  Z15.95  F800
G1  X142.88  Z15.90  F800
G1  X142.38  Z15.85  F800
G1  X141.88  Z15.80  F800
G1  X141.38  Z15.74  F800
G1  X140.88  Z15.68  F800
G1  X140.38  Z15.62  F800
G1  X139.88  Z15.55  F800
G1  X139.38  Z15.47  F800
G1  X138.88  Z15.40  F800
G1  X138.38  Z15.32  F800
G1  X137.88  Z15.23  F800
G1  X137.38  Z15.14  F800
G1  X136.88  Z15.05  F800
G1  X136.38  Z14.95  F800
G1  X135.88  Z14.85  F800
G1  X135.38  Z14.75  F800
G1  X134.88  Z14.64  F800
G1  X134.38  Z14.52  F800
G1  X133.88  Z14.41  F800
G1  X133.38  Z14.28  F800
G1  X132.88  Z14.16  F800
G1  X132.38  Z14.03  F800
G1  X131.88  Z13.89  F800
G1  X131.38  Z13.75  F800
G1  X130.88  Z13.61  F800
G1  X130.38  Z13.46  F800
G1  X129.88  Z13.31  F800
G1  X129.38  Z13.16  F800
G1  X128.88  Z13.00  F800
G1  X128.38  Z12.83  F800
G1  X127.88  Z12.66  F800
G1  X127.38  Z12.49  F800
G1  X126.88  Z12.31  F800
G1  X126.38  Z12.13  F800
G1  X125.88  Z11.94  F800
G1  X125.38  Z11.75  F800
G1  X124.88  Z11.55  F800
G1  X124.38  Z11.35  F800
G1  X123.88  Z11.14  F800
G1  X123.38  Z10.93  F800
G1  X122.88  Z10.71  F800
G1  X122.38  Z10.49  F800
G1  X121.88  Z10.27  F800
G1  X121.38  Z10.04  F800
G1  X120.88  Z9.80  F800
G1  X120.38  Z9.56  F800
G1  X119.88  Z9.31  F800
G1  X119.38  Z9.06  F800
G1  X118.88  Z8.80  F800
G1  X118.38  Z8.54  F800
G1  X117.88  Z8.27  F800
G1  X117.38  Z8.10  F800
G1  X80.88  Z8.10  F800
G1  X80.38  Z8.27  F800
G1  X79.88  Z8.54  F800
G1  X79.38  Z8.80  F800
G1  X78.88  Z9.06  F800
G1  X78.38  Z9.31  F800
G1  X77.88  Z9.56  F800
G1  X77.38  Z9.80  F800
G1  X76.88  Z10.04  F800
G1  X76.38  Z10.27  F800
G1  X75.88  Z10.49  F800
G1  X75.38  Z10.71  F800
G1  X74.88  Z10.93  F800
G1  X74.38  Z11.14  F800
G1  X73.88  Z11.35  F800
G1  X73.38  Z11.55  F800
G1  X72.88  Z11.75  F800
G1  X72.38  Z11.94  F800
G1  X71.88  Z12.13  F800
G1  X71.38  Z12.31  F800
G1  X70.88  Z12.49  F800
G1  X70.38  Z12.66  F800
G1  X69.88  Z12.83  F800
G1  X69.38  Z13.00  F800
G1  X68.88  Z13.16  F800
G1  X68.38  Z13.31  F800
G1  X67.88  Z13.46  F800
G1  X67.38  Z13.61  F800
G1  X66.88  Z13.75  F800
G1  X66.38  Z13.89  F800
G1  X65.88  Z14.03  F800
G1  X65.38  Z14.16  F800
G1  X64.88  Z14.28  F800
G1  X64.38  Z14.41  F800
G1  X63.88  Z14.52  F800
G1  X63.38  Z14.64  F800
G1  X62.88  Z14.75  F800
G1  X62.38  Z14.85  F800
G1  X61.88  Z14.95  F800
G1  X61.38  Z15.05  F800
G1  X60.88  Z15.14  F800
G1  X60.38  Z15.23  F800
G1  X59.88  Z15.32  F800
G1  X59.38  Z15.40  F800
G1  X58.88  Z15.47  F800
G1  X58.38  Z15.55  F800
G1  X57.88  Z15.62  F800
G1  X57.38  Z15.68  F800
G1  X56.88  Z15.74  F800
G1  X56.38  Z15.80  F800
G1  X55.88  Z15.85  F800
G1  X55.38  Z15.90  F800
G1  X54.88  Z15.95  F800
G1  X54.38  Z15.99  F800
G1  X53.88  Z16.03  F800
G1  X53.38  Z16.06  F800
G1  X52.88  Z16.09  F800
G1  X52.38  Z16.12  F800
G1  X51.88  Z16.14  F800
G1  X51.38  Z16.16  F800
G1  X50.88  Z16.18  F800
G1  X50.38  Z16.19  F800
G1  X49.88  Z16.19  F800
G1  X49.38  Z16.20  F800
G1  X48.88  Z16.20  F800
G1  X22.38  Z16.20  F800
G1  Y890.00  F500
; ---- stripe Y=890.00 ----
G0  X22.38  Y890.00
G1  Y890.00  F2000
G1  X22.38  Z16.20  F800
G1  X48.88  Z16.20  F800
G1  X49.38  Z16.20  F800
G1  X49.88  Z16.19  F800
G1  X50.38  Z16.19  F800
G1  X50.88  Z16.18  F800
G1  X51.38  Z16.16  F800
G1  X51.88  Z16.14  F800
G1  X52.38  Z16.12  F800
G1  X52.88  Z16.09  F800
G1  X53.38  Z16.06  F800
G1  X53.88  Z16.03  F800
G1  X54.38  Z15.99  F800
G1  X54.88  Z15.95  F800
G1  X55.38  Z15.90  F800
G1  X55.88  Z15.85  F800
G1  X56.38  Z15.80  F800
G1  X56.88  Z15.74  F800
G1  X57.38  Z15.68  F800
G1  X57.88  Z15.62  F800
G1  X58.38  Z15.55  F800
G1  X58.88  Z15.47  F800
G1  X59.38  Z15.40  F800
G1  X59.88  Z15.32  F800
G1  X60.38  Z15.23  F800
G1  X60.88  Z15.14  F800
G1  X61.38  Z15.05  F800
G1  X61.88  Z14.95  F800
G1  X62.38  Z14.85  F800
G1  X62.88  Z14.75  F800
G1  X63.38  Z14.64  F800
G1  X63.88  Z14.52  F800
G1  X64.38  Z14.41  F800
G1  X64.88  Z14.28  F800
G1  X65.38  Z14.16  F800
G1  X65.88  Z14.03  F800
G1  X66.38  Z13.89  F800
G1  X66.88  Z13.75  F800
G1  X67.38  Z13.61  F800
G1  X67.88  Z13.46  F800
G1  X68.38  Z13.31  F800
G1  X68.88  Z13.16  F800
G1  X69.38  Z13.00  F800
G1  X69.88  Z12.83  F800
G1  X70.38  Z12.66  F800
G1  X70.88  Z12.49  F800
G1  X71.38  Z12.31  F800
G1  X71.88  Z12.13  F800
G1  X72.38  Z11.94  F800
G1  X72.88  Z11.75  F800
G1  X73.38  Z11.55  F800
G1  X73.88  Z11.35  F800
G1  X74.38  Z11.14  F800
G1  X74.88  Z10.93  F800
G1  X75.38  Z10.71  F800
G1  X75.88  Z10.49  F800
G1  X76.38  Z10.27  F800
G1  X76.88  Z10.04  F800
G1  X77.38  Z9.80  F800
G1  X77.88  Z9.56  F800
G1  X78.38  Z9.31  F800
G1  X78.88  Z9.06  F800
G1  X79.38  Z8.80  F800
G1  X79.88  Z8.54  F800
G1  X80.38  Z8.27  F800
G1  X80.88  Z8.10  F800
G1  X117.38  Z8.10  F800
G1  X117.88  Z8.27  F800
G1  X118.38  Z8.54  F800
G1  X118.88  Z8.80  F800
G1  X119.38  Z9.06  F800
G1  X119.88  Z9.31  F800
G1  X120.38  Z9.56  F800
G1  X120.88  Z9.80  F800
G1  X121.38  Z10.04  F800
G1  X121.88  Z10.27  F800
G1  X122.38  Z10.49  F800
G1  X122.88  Z10.71  F800
G1  X123.38  Z10.93  F800
G1  X123.88  Z11.14  F800
G1  X124.38  Z11.35  F800
G1  X124.88  Z11.55  F800
G1  X125.38  Z11.75  F800
G1  X125.88  Z11.94  F800
G1  X126.38  Z12.13  F800
G1  X126.88  Z12.31  F800
G1  X127.38  Z12.49  F800
G1  X127.88  Z12.66  F800
G1  X128.38  Z12.83  F800
G1  X128.88  Z13.00  F800
G1  X129.38  Z13.16  F800
G1  X129.88  Z13.31  F800
G1  X130.38  Z13.46  F800
G1  X130.88  Z13.61  F800
G1  X131.38  Z13.75  F800
G1  X131.88  Z13.89  F800
G1  X132.38  Z14.03  F800
G1  X132.88  Z14.16  F800
G1  X133.38  Z14.28  F800
G1  X133.88  Z14.41  F800
G1  X134.38  Z14.52  F800
G1  X134.88  Z14.64  F800
G1  X135.38  Z14.75  F800
G1  X135.88  Z14.85  F800
G1  X136.38  Z14.95  F800
G1  X136.88  Z15.05  F800
G1  X137.38  Z15.14  F800
G1  X137.88  Z15.23  F800
G1  X138.38  Z15.32  F800
G1  X138.88  Z15.40  F800
G1  X139.38  Z15.47  F800
G1  X139.88  Z15.55  F800
G1  X140.38  Z15.62  F800
G1  X140.88  Z15.68  F800
G1  X141.38  Z15.74  F800
G1  X141.88  Z15.80  F800
G1  X142.38  Z15.85  F800
G1  X142.88  Z15.90  F800
G1  X143.38  Z15.95  F800
G1  X143.88  Z15.99  F800
G1  X144.38  Z16.03  F800
G1  X144.88  Z16.06  F800
G1  X145.38  Z16.09  F800
G1  X145.88  Z16.12  F800
G1  X146.38  Z16.14  F800
G1  X146.88  Z16.16  F800
G1  X147.38  Z16.18  F800
G1  X147.88  Z16.19  F800
G1  X148.38  Z16.19  F800
G1  X148.88  Z16.20  F800
G1  X175.88  Z16.20  F800
G1  Y885.00  F500
; ---- stripe Y=885.00 ----
G0  X175.88  Y885.00
G1  Y885.00  F2000
G1  X175.88  Z16.20  F800
G1  X148.88  Z16.20  F800
G1  X148.38  Z16.19  F800
G1  X147.88  Z16.19  F800
G1  X147.38  Z16.18  F800
G1  X146.88  Z16.16  F800
G1  X146.38  Z16.14  F800
G1  X145.88  Z16.12  F800
G1  X145.38  Z16.09  F800
G1  X144.88  Z16.06  F800
G1  X144.38  Z16.03  F800
G1  X143.88  Z15.99  F800
G1  X143.38  Z15.95  F800
G1  X142.88  Z15.90  F800
G1  X142.38  Z15.85  F800
G1  X141.88  Z15.80  F800
G1  X141.38  Z15.74  F800
G1  X140.88  Z15.68  F800
G1  X140.38  Z15.62  F800
G1  X139.88  Z15.55  F800
G1  X139.38  Z15.47  F800
G1  X138.88  Z15.40  F800
G1  X138.38  Z15.32  F800
G1  X137.88  Z15.23  F800
G1  X137.38  Z15.14  F800
G1  X136.88  Z15.05  F800
G1  X136.38  Z14.95  F800
G1  X135.88  Z14.85  F800
G1  X135.38  Z14.75  F800
G1  X134.88  Z14.64  F800
G1  X134.38  Z14.52  F800
G1  X133.88  Z14.41  F800
G1  X133.38  Z14.28  F800
G1  X132.88  Z14.16  F800
G1  X132.38  Z14.03  F800
G1  X131.88  Z13.89  F800
G1  X131.38  Z13.75  F800
G1  X130.88  Z13.61  F800
G1  X130.38  Z13.46  F800
G1  X129.88  Z13.31  F800
G1  X129.38  Z13.16  F800
G1  X128.88  Z13.00  F800
G1  X128.38  Z12.83  F800
G1  X127.88  Z12.66  F800
G1  X127.38  Z12.49  F800
G1  X126.88  Z12.31  F800
G1  X126.38  Z12.13  F800
G1  X125.88  Z11.94  F800
G1  X125.38  Z11.75  F800
G1  X124.88  Z11.55  F800
G1  X124.38  Z11.35  F800
G1  X123.88  Z11.14  F800
G1  X123.38  Z10.93  F800
G1  X122.88  Z10.71  F800
G1  X122.38  Z10.49  F800
G1  X121.88  Z10.27  F800
G1  X121.38  Z10.04  F800
G1  X120.88  Z9.80  F800
G1  X120.38  Z9.56  F800
G1  X119.88  Z9.31  F800
G1  X119.38  Z9.06  F800
G1  X118.88  Z8.80  F800
G1  X118.38  Z8.54  F800
G1  X117.88  Z8.27  F800
G1  X117.38  Z8.10  F800
G1  X80.88  Z8.10  F800
G1  X80.38  Z8.27  F800
G1  X79.88  Z8.54  F800
G1  X79.38  Z8.80  F800
G1  X78.88  Z9.06  F800
G1  X78.38  Z9.31  F800
G1  X77.88  Z9.56  F800
G1  X77.38  Z9.80  F800
G1  X76.88  Z10.04  F800
G1  X76.38  Z10.27  F800
G1  X75.88  Z10.49  F800
G1  X75.38  Z10.71  F800
G1  X74.88  Z10.93  F800
G1  X74.38  Z11.14  F800
G1  X73.88  Z11.35  F800
G1  X73.38  Z11.55  F800
G1  X72.88  Z11.75  F800
G1  X72.38  Z11.94  F800
G1  X71.88  Z12.13  F800
G1  X71.38  Z12.31  F800
G1  X70.88  Z12.49  F800
G1  X70.38  Z12.66  F800
G1  X69.88  Z12.83  F800
G1  X69.38  Z13.00  F800
G1  X68.88  Z13.16  F800
G1  X68.38  Z13.31  F800
G1  X67.88  Z13.46  F800
G1  X67.38  Z13.61  F800
G1  X66.88  Z13.75  F800
G1  X66.38  Z13.89  F800
G1  X65.88  Z14.03  F800
G1  X65.38  Z14.16  F800
G1  X64.88  Z14.28  F800
G1  X64.38  Z14.41  F800
G1  X63.88  Z14.52  F800
G1  X63.38  Z14.64  F800
G1  X62.88  Z14.75  F800
G1  X62.38  Z14.85  F800
G1  X61.88  Z14.95  F800
G1  X61.38  Z15.05  F800
G1  X60.88  Z15.14  F800
G1  X60.38  Z15.23  F800
G1  X59.88  Z15.32  F800
G1  X59.38  Z15.40  F800
G1  X58.88  Z15.47  F800
G1  X58.38  Z15.55  F800
G1  X57.88  Z15.62  F800
G1  X57.38  Z15.68  F800
G1  X56.88  Z15.74  F800
G1  X56.38  Z15.80  F800
G1  X55.88  Z15.85  F800
G1  X55.38  Z15.90  F800
G1  X54.88  Z15.95  F800
G1  X54.38  Z15.99  F800
G1  X53.88  Z16.03  F800
G1  X53.38  Z16.06  F800
G1  X52.88  Z16.09  F800
G1  X52.38  Z16.12  F800
G1  X51.88  Z16.14  F800
G1  X51.38  Z16.16  F800
G1  X50.88  Z16.18  F800
G1  X50.38  Z16.19  F800
G1  X49.88  Z16.19  F800
G1  X49.38  Z16.20  F800
G1  X48.88  Z16.20  F800
G1  X22.38  Z16.20  F800
G1  Y880.00  F500
; ---- stripe Y=880.00 ----
G0  X22.38  Y880.00
G1  Y880.00  F2000
G1  X22.38  Z16.20  F800
G1  X48.88  Z16.20  F800
G1  X49.38  Z16.20  F800
G1  X49.88  Z16.19  F800
G1  X50.38  Z16.19  F800
G1  X50.88  Z16.18  F800
G1  X51.38  Z16.16  F800
G1  X51.88  Z16.14  F800
G1  X52.38  Z16.12  F800
G1  X52.88  Z16.09  F800
G1  X53.38  Z16.06  F800
G1  X53.88  Z16.03  F800
G1  X54.38  Z15.99  F800
G1  X54.88  Z15.95  F800
G1  X55.38  Z15.90  F800
G1  X55.88  Z15.85  F800
G1  X56.38  Z15.80  F800
G1  X56.88  Z15.74  F800
G1  X57.38  Z15.68  F800
G1  X57.88  Z15.62  F800
G1  X58.38  Z15.55  F800
G1  X58.88  Z15.47  F800
G1  X59.38  Z15.40  F800
G1  X59.88  Z15.32  F800
G1  X60.38  Z15.23  F800
G1  X60.88  Z15.14  F800
G1  X61.38  Z15.05  F800
G1  X61.88  Z14.95  F800
G1  X62.38  Z14.85  F800
G1  X62.88  Z14.75  F800
G1  X63.38  Z14.64  F800
G1  X63.88  Z14.52  F800
G1  X64.38  Z14.41  F800
G1  X64.88  Z14.28  F800
G1  X65.38  Z14.16  F800
G1  X65.88  Z14.03  F800
G1  X66.38  Z13.89  F800
G1  X66.88  Z13.75  F800
G1  X67.38  Z13.61  F800
G1  X67.88  Z13.46  F800
G1  X68.38  Z13.31  F800
G1  X68.88  Z13.16  F800
G1  X69.38  Z13.00  F800
G1  X69.88  Z12.83  F800
G1  X70.38  Z12.66  F800
G1  X70.88  Z12.49  F800
G1  X71.38  Z12.31  F800
G1  X71.88  Z12.13  F800
G1  X72.38  Z11.94  F800
G1  X72.88  Z11.75  F800
G1  X73.38  Z11.55  F800
G1  X73.88  Z11.35  F800
G1  X74.38  Z11.14  F800
G1  X74.88  Z10.93  F800
G1  X75.38  Z10.71  F800
G1  X75.88  Z10.49  F800
G1  X76.38  Z10.27  F800
G1  X76.88  Z10.04  F800
G1  X77.38  Z9.80  F800
G1  X77.88  Z9.56  F800
G1  X78.38  Z9.31  F800
G1  X78.88  Z9.06  F800
G1  X79.38  Z8.80  F800
G1  X79.88  Z8.54  F800
G1  X80.38  Z8.27  F800
G1  X80.88  Z8.10  F800
G1  X117.38  Z8.10  F800
G1  X117.88  Z8.27  F800
G1  X118.38  Z8.54  F800
G1  X118.88  Z8.80  F800
G1  X119.38  Z9.06  F800
G1  X119.88  Z9.31  F800
G1  X120.38  Z9.56  F800
G1  X120.88  Z9.80  F800
G1  X121.38  Z10.04  F800
G1  X121.88  Z10.27  F800
G1  X122.38  Z10.49  F800
G1  X122.88  Z10.71  F800
G1  X123.38  Z10.93  F800
G1  X123.88  Z11.14  F800
G1  X124.38  Z11.35  F800
G1  X124.88  Z11.55  F800
G1  X125.38  Z11.75  F800
G1  X125.88  Z11.94  F800
G1  X126.38  Z12.13  F800
G1  X126.88  Z12.31  F800
G1  X127.38  Z12.49  F800
G1  X127.88  Z12.66  F800
G1  X128.38  Z12.83  F800
G1  X128.88  Z13.00  F800
G1  X129.38  Z13.16  F800
G1  X129.88  Z13.31  F800
G1  X130.38  Z13.46  F800
G1  X130.88  Z13.61  F800
G1  X131.38  Z13.75  F800
G1  X131.88  Z13.89  F800
G1  X132.38  Z14.03  F800
G1  X132.88  Z14.16  F800
G1  X133.38  Z14.28  F800
G1  X133.88  Z14.41  F800
G1  X134.38  Z14.52  F800
G1  X134.88  Z14.64  F800
G1  X135.38  Z14.75  F800
G1  X135.88  Z14.85  F800
G1  X136.38  Z14.95  F800
G1  X136.88  Z15.05  F800
G1  X137.38  Z15.14  F800
G1  X137.88  Z15.23  F800
G1  X138.38  Z15.32  F800
G1  X138.88  Z15.40  F800
G1  X139.38  Z15.47  F800
G1  X139.88  Z15.55  F800
G1  X140.38  Z15.62  F800
G1  X140.88  Z15.68  F800
G1  X141.38  Z15.74  F800
G1  X141.88  Z15.80  F800
G1  X142.38  Z15.85  F800
G1  X142.88  Z15.90  F800
G1  X143.38  Z15.95  F800
G1  X143.88  Z15.99  F800
G1  X144.38  Z16.03  F800
G1  X144.88  Z16.06  F800
G1  X145.38  Z16.09  F800
G1  X145.88  Z16.12  F800
G1  X146.38  Z16.14  F800
G1  X146.88  Z16.16  F800
G1  X147.38  Z16.18  F800
G1  X147.88  Z16.19  F800
G1  X148.38  Z16.19  F800
G1  X148.88  Z16.20  F800
G1  X175.88  Z16.20  F800
G1  Y875.00  F500
; ---- stripe Y=875.00 ----
G0  X175.88  Y875.00
G1  Y875.00  F2000
G1  X175.88  Z16.20  F800
G1  X148.88  Z16.20  F800
G1  X148.38  Z16.19  F800
G1  X147.88  Z16.19  F800
G1  X147.38  Z16.18  F800
G1  X146.88  Z16.16  F800
G1  X146.38  Z16.14  F800
G1  X145.88  Z16.12  F800
G1  X145.38  Z16.09  F800
G1  X144.88  Z16.06  F800
G1  X144.38  Z16.03  F800
G1  X143.88  Z15.99  F800
G1  X143.38  Z15.95  F800
G1  X142.88  Z15.90  F800
G1  X142.38  Z15.85  F800
G1  X141.88  Z15.80  F800
G1  X141.38  Z15.74  F800
G1  X140.88  Z15.68  F800
G1  X140.38  Z15.62  F800
G1  X139.88  Z15.55  F800
G1  X139.38  Z15.47  F800
G1  X138.88  Z15.40  F800
G1  X138.38  Z15.32  F800
G1  X137.88  Z15.23  F800
G1  X137.38  Z15.14  F800
G1  X136.88  Z15.05  F800
G1  X136.38  Z14.95  F800
G1  X135.88  Z14.85  F800
G1  X135.38  Z14.75  F800
G1  X134.88  Z14.64  F800
G1  X134.38  Z14.52  F800
G1  X133.88  Z14.41  F800
G1  X133.38  Z14.28  F800
G1  X132.88  Z14.16  F800
G1  X132.38  Z14.03  F800
G1  X131.88  Z13.89  F800
G1  X131.38  Z13.75  F800
G1  X130.88  Z13.61  F800
G1  X130.38  Z13.46  F800
G1  X129.88  Z13.31  F800
G1  X129.38  Z13.16  F800
G1  X128.88  Z13.00  F800
G1  X128.38  Z12.83  F800
G1  X127.88  Z12.66  F800
G1  X127.38  Z12.49  F800
G1  X126.88  Z12.31  F800
G1  X126.38  Z12.13  F800
G1  X125.88  Z11.94  F800
G1  X125.38  Z11.75  F800
G1  X124.88  Z11.55  F800
G1  X124.38  Z11.35  F800
G1  X123.88  Z11.14  F800
G1  X123.38  Z10.93  F800
G1  X122.88  Z10.71  F800
G1  X122.38  Z10.49  F800
G1  X121.88  Z10.27  F800
G1  X121.38  Z10.04  F800
G1  X120.88  Z9.80  F800
G1  X120.38  Z9.56  F800
G1  X119.88  Z9.31  F800
G1  X119.38  Z9.06  F800
G1  X118.88  Z8.80  F800
G1  X118.38  Z8.54  F800
G1  X117.88  Z8.27  F800
G1  X117.38  Z8.10  F800
G1  X80.88  Z8.10  F800
G1  X80.38  Z8.27  F800
G1  X79.88  Z8.54  F800
G1  X79.38  Z8.80  F800
G1  X78.88  Z9.06  F800
G1  X78.38  Z9.31  F800
G1  X77.88  Z9.56  F800
G1  X77.38  Z9.80  F800
G1  X76.88  Z10.04  F800
G1  X76.38  Z10.27  F800
G1  X75.88  Z10.49  F800
G1  X75.38  Z10.71  F800
G1  X74.88  Z10.93  F800
G1  X74.38  Z11.14  F800
G1  X73.88  Z11.35  F800
G1  X73.38  Z11.55  F800
G1  X72.88  Z11.75  F800
G1  X72.38  Z11.94  F800
G1  X71.88  Z12.13  F800
G1  X71.38  Z12.31  F800
G1  X70.88  Z12.49  F800
G1  X70.38  Z12.66  F800
G1  X69.88  Z12.83  F800
G1  X69.38  Z13.00  F800
G1  X68.88  Z13.16  F800
G1  X68.38  Z13.31  F800
G1  X67.88  Z13.46  F800
G1  X67.38  Z13.61  F800
G1  X66.88  Z13.75  F800
G1  X66.38  Z13.89  F800
G1  X65.88  Z14.03  F800
G1  X65.38  Z14.16  F800
G1  X64.88  Z14.28  F800
G1  X64.38  Z14.41  F800
G1  X63.88  Z14.52  F800
G1  X63.38  Z14.64  F800
G1  X62.88  Z14.75  F800
G1  X62.38  Z14.85  F800
G1  X61.88  Z14.95  F800
G1  X61.38  Z15.05  F800
G1  X60.88  Z15.14  F800
G1  X60.38  Z15.23  F800
G1  X59.88  Z15.32  F800
G1  X59.38  Z15.40  F800
G1  X58.88  Z15.47  F800
G1  X58.38  Z15.55  F800
G1  X57.88  Z15.62  F800
G1  X57.38  Z15.68  F800
G1  X56.88  Z15.74  F800
G1  X56.38  Z15.80  F800
G1  X55.88  Z15.85  F800
G1  X55.38  Z15.90  F800
G1  X54.88  Z15.95  F800
G1  X54.38  Z15.99  F800
G1  X53.88  Z16.03  F800
G1  X53.38  Z16.06  F800
G1  X52.88  Z16.09  F800
G1  X52.38  Z16.12  F800
G1  X51.88  Z16.14  F800
G1  X51.38  Z16.16  F800
G1  X50.88  Z16.18  F800
G1  X50.38  Z16.19  F800
G1  X49.88  Z16.19  F800
G1  X49.38  Z16.20  F800
G1  X48.88  Z16.20  F800
G1  X22.38  Z16.20  F800
G1  Y870.00  F500
; ---- stripe Y=870.00 ----
G0  X22.38  Y870.00
G1  Y870.00  F2000
G1  X22.38  Z16.20  F800
G1  X48.88  Z16.20  F800
G1  X49.38  Z16.20  F800
G1  X49.88  Z16.19  F800
G1  X50.38  Z16.19  F800
G1  X50.88  Z16.18  F800
G1  X51.38  Z16.16  F800
G1  X51.88  Z16.14  F800
G1  X52.38  Z16.12  F800
G1  X52.88  Z16.09  F800
G1  X53.38  Z16.06  F800
G1  X53.88  Z16.03  F800
G1  X54.38  Z15.99  F800
G1  X54.88  Z15.95  F800
G1  X55.38  Z15.90  F800
G1  X55.88  Z15.85  F800
G1  X56.38  Z15.80  F800
G1  X56.88  Z15.74  F800
G1  X57.38  Z15.68  F800
G1  X57.88  Z15.62  F800
G1  X58.38  Z15.55  F800
G1  X58.88  Z15.47  F800
G1  X59.38  Z15.40  F800
G1  X59.88  Z15.32  F800
G1  X60.38  Z15.23  F800
G1  X60.88  Z15.14  F800
G1  X61.38  Z15.05  F800
G1  X61.88  Z14.95  F800
G1  X62.38  Z14.85  F800
G1  X62.88  Z14.75  F800
G1  X63.38  Z14.64  F800
G1  X63.88  Z14.52  F800
G1  X64.38  Z14.41  F800
G1  X64.88  Z14.28  F800
G1  X65.38  Z14.16  F800
G1  X65.88  Z14.03  F800
G1  X66.38  Z13.89  F800
G1  X66.88  Z13.75  F800
G1  X67.38  Z13.61  F800
G1  X67.88  Z13.46  F800
G1  X68.38  Z13.31  F800
G1  X68.88  Z13.16  F800
G1  X69.38  Z13.00  F800
G1  X69.88  Z12.83  F800
G1  X70.38  Z12.66  F800
G1  X70.88  Z12.49  F800
G1  X71.38  Z12.31  F800
G1  X71.88  Z12.13  F800
G1  X72.38  Z11.94  F800
G1  X72.88  Z11.75  F800
G1  X73.38  Z11.55  F800
G1  X73.88  Z11.35  F800
G1  X74.38  Z11.14  F800
G1  X74.88  Z10.93  F800
G1  X75.38  Z10.71  F800
G1  X75.88  Z10.49  F800
G1  X76.38  Z10.27  F800
G1  X76.88  Z10.04  F800
G1  X77.38  Z9.80  F800
G1  X77.88  Z9.56  F800
G1  X78.38  Z9.31  F800
G1  X78.88  Z9.06  F800
G1  X79.38  Z8.80  F800
G1  X79.88  Z8.54  F800
G1  X80.38  Z8.27  F800
G1  X80.88  Z8.10  F800
G1  X117.38  Z8.10  F800
G1  X117.88  Z8.27  F800
G1  X118.38  Z8.54  F800
G1  X118.88  Z8.80  F800
G1  X119.38  Z9.06  F800
G1  X119.88  Z9.31  F800
G1  X120.38  Z9.56  F800
G1  X120.88  Z9.80  F800
G1  X121.38  Z10.04  F800
G1  X121.88  Z10.27  F800
G1  X122.38  Z10.49  F800
G1  X122.88  Z10.71  F800
G1  X123.38  Z10.93  F800
G1  X123.88  Z11.14  F800
G1  X124.38  Z11.35  F800
G1  X124.88  Z11.55  F800
G1  X125.38  Z11.75  F800
G1  X125.88  Z11.94  F800
G1  X126.38  Z12.13  F800
G1  X126.88  Z12.31  F800
G1  X127.38  Z12.49  F800
G1  X127.88  Z12.66  F800
G1  X128.38  Z12.83  F800
G1  X128.88  Z13.00  F800
G1  X129.38  Z13.16  F800
G1  X129.88  Z13.31  F800
G1  X130.38  Z13.46  F800
G1  X130.88  Z13.61  F800
G1  X131.38  Z13.75  F800
G1  X131.88  Z13.89  F800
G1  X132.38  Z14.03  F800
G1  X132.88  Z14.16  F800
G1  X133.38  Z14.28  F800
G1  X133.88  Z14.41  F800
G1  X134.38  Z14.52  F800
G1  X134.88  Z14.64  F800
G1  X135.38  Z14.75  F800
G1  X135.88  Z14.85  F800
G1  X136.38  Z14.95  F800
G1  X136.88  Z15.05  F800
G1  X137.38  Z15.14  F800
G1  X137.88  Z15.23  F800
G1  X138.38  Z15.32  F800
G1  X138.88  Z15.40  F800
G1  X139.38  Z15.47  F800
G1  X139.88  Z15.55  F800
G1  X140.38  Z15.62  F800
G1  X140.88  Z15.68  F800
G1  X141.38  Z15.74  F800
G1  X141.88  Z15.80  F800
G1  X142.38  Z15.85  F800
G1  X142.88  Z15.90  F800
G1  X143.38  Z15.95  F800
G1  X143.88  Z15.99  F800
G1  X144.38  Z16.03  F800
G1  X144.88  Z16.06  F800
G1  X145.38  Z16.09  F800
G1  X145.88  Z16.12  F800
G1  X146.38  Z16.14  F800
G1  X146.88  Z16.16  F800
G1  X147.38  Z16.18  F800
G1  X147.88  Z16.19  F800
G1  X148.38  Z16.19  F800
G1  X148.88  Z16.20  F800
G1  X175.88  Z16.20  F800
G1  Y865.00  F500
; ---- stripe Y=865.00 ----
G0  X175.88  Y865.00
G1  Y865.00  F2000
G1  X175.88  Z16.20  F800
G1  X148.88  Z16.20  F800
G1  X148.38  Z16.19  F800
G1  X147.88  Z16.19  F800
G1  X147.38  Z16.18  F800
G1  X146.88  Z16.16  F800
G1  X146.38  Z16.14  F800
G1  X145.88  Z16.12  F800
G1  X145.38  Z16.09  F800
G1  X144.88  Z16.06  F800
G1  X144.38  Z16.03  F800
G1  X143.88  Z15.99  F800
G1  X143.38  Z15.95  F800
G1  X142.88  Z15.90  F800
G1  X142.38  Z15.85  F800
G1  X141.88  Z15.80  F800
G1  X141.38  Z15.74  F800
G1  X140.88  Z15.68  F800
G1  X140.38  Z15.62  F800
G1  X139.88  Z15.55  F800
G1  X139.38  Z15.47  F800
G1  X138.88  Z15.40  F800
G1  X138.38  Z15.32  F800
G1  X137.88  Z15.23  F800
G1  X137.38  Z15.14  F800
G1  X136.88  Z15.05  F800
G1  X136.38  Z14.95  F800
G1  X135.88  Z14.85  F800
G1  X135.38  Z14.75  F800
G1  X134.88  Z14.64  F800
G1  X134.38  Z14.52  F800
G1  X133.88  Z14.41  F800
G1  X133.38  Z14.28  F800
G1  X132.88  Z14.16  F800
G1  X132.38  Z14.03  F800
G1  X131.88  Z13.89  F800
G1  X131.38  Z13.75  F800
G1  X130.88  Z13.61  F800
G1  X130.38  Z13.46  F800
G1  X129.88  Z13.31  F800
G1  X129.38  Z13.16  F800
G1  X128.88  Z13.00  F800
G1  X128.38  Z12.83  F800
G1  X127.88  Z12.66  F800
G1  X127.38  Z12.49  F800
G1  X126.88  Z12.31  F800
G1  X126.38  Z12.13  F800
G1  X125.88  Z11.94  F800
G1  X125.38  Z11.75  F800
G1  X124.88  Z11.55  F800
G1  X124.38  Z11.35  F800
G1  X123.88  Z11.14  F800
G1  X123.38  Z10.93  F800
G1  X122.88  Z10.71  F800
G1  X122.38  Z10.49  F800
G1  X121.88  Z10.27  F800
G1  X121.38  Z10.04  F800
G1  X120.88  Z9.80  F800
G1  X120.38  Z9.56  F800
G1  X119.88  Z9.31  F800
G1  X119.38  Z9.06  F800
G1  X118.88  Z8.80  F800
G1  X118.38  Z8.54  F800
G1  X117.88  Z8.27  F800
G1  X117.38  Z8.10  F800
G1  X80.88  Z8.10  F800
G1  X80.38  Z8.27  F800
G1  X79.88  Z8.54  F800
G1  X79.38  Z8.80  F800
G1  X78.88  Z9.06  F800
G1  X78.38  Z9.31  F800
G1  X77.88  Z9.56  F800
G1  X77.38  Z9.80  F800
G1  X76.88  Z10.04  F800
G1  X76.38  Z10.27  F800
G1  X75.88  Z10.49  F800
G1  X75.38  Z10.71  F800
G1  X74.88  Z10.93  F800
G1  X74.38  Z11.14  F800
G1  X73.88  Z11.35  F800
G1  X73.38  Z11.55  F800
G1  X72.88  Z11.75  F800
G1  X72.38  Z11.94  F800
G1  X71.88  Z12.13  F800
G1  X71.38  Z12.31  F800
G1  X70.88  Z12.49  F800
G1  X70.38  Z12.66  F800
G1  X69.88  Z12.83  F800
G1  X69.38  Z13.00  F800
G1  X68.88  Z13.16  F800
G1  X68.38  Z13.31  F800
G1  X67.88  Z13.46  F800
G1  X67.38  Z13.61  F800
G1  X66.88  Z13.75  F800
G1  X66.38  Z13.89  F800
G1  X65.88  Z14.03  F800
G1  X65.38  Z14.16  F800
G1  X64.88  Z14.28  F800
G1  X64.38  Z14.41  F800
G1  X63.88  Z14.52  F800
G1  X63.38  Z14.64  F800
G1  X62.88  Z14.75  F800
G1  X62.38  Z14.85  F800
G1  X61.88  Z14.95  F800
G1  X61.38  Z15.05  F800
G1  X60.88  Z15.14  F800
G1  X60.38  Z15.23  F800
G1  X59.88  Z15.32  F800
G1  X59.38  Z15.40  F800
G1  X58.88  Z15.47  F800
G1  X58.38  Z15.55  F800
G1  X57.88  Z15.62  F800
G1  X57.38  Z15.68  F800
G1  X56.88  Z15.74  F800
G1  X56.38  Z15.80  F800
G1  X55.88  Z15.85  F800
G1  X55.38  Z15.90  F800
G1  X54.88  Z15.95  F800
G1  X54.38  Z15.99  F800
G1  X53.88  Z16.03  F800
G1  X53.38  Z16.06  F800
G1  X52.88  Z16.09  F800
G1  X52.38  Z16.12  F800
G1  X51.88  Z16.14  F800
G1  X51.38  Z16.16  F800
G1  X50.88  Z16.18  F800
G1  X50.38  Z16.19  F800
G1  X49.88  Z16.19  F800
G1  X49.38  Z16.20  F800
G1  X48.88  Z16.20  F800
G1  X22.38  Z16.20  F800
G1  Y860.00  F500
; ---- stripe Y=860.00 ----
G0  X22.38  Y860.00
G1  Y860.00  F2000
G1  X22.38  Z16.20  F800
G1  X48.88  Z16.20  F800
G1  X49.38  Z16.20  F800
G1  X49.88  Z16.19  F800
G1  X50.38  Z16.19  F800
G1  X50.88  Z16.18  F800
G1  X51.38  Z16.16  F800
G1  X51.88  Z16.14  F800
G1  X52.38  Z16.12  F800
G1  X52.88  Z16.09  F800
G1  X53.38  Z16.06  F800
G1  X53.88  Z16.03  F800
G1  X54.38  Z15.99  F800
G1  X54.88  Z15.95  F800
